; generated by Slic3r 1.2.9 on 2017-04-21 at 10:20:10

; external perimeters extrusion width = 0.50mm
; perimeters extrusion width = 0.72mm
; infill extrusion width = 0.72mm
; solid infill extrusion width = 0.72mm
; top infill extrusion width = 0.72mm

M107
M104 S200 ; set temperature
G28 ; home all axes
G1 Z5 F5000 ; lift nozzle

M109 S200 ; wait for temperature to be reached
G21 ; set units to millimeters
G90 ; use absolute coordinates
M82 ; use absolute distances for extrusion
G92 E0
G1 Z0.350 F7800.000
G1 E-2.00000 F2400.00000
G92 E0
G1 X130.772 Y57.741 F7800.000
G1 E2.00000 F2400.00000
G1 X131.915 Y55.753 E2.07096 F600.000
G1 X133.668 Y54.274 E2.14192
G1 X135.820 Y53.481 E2.21289
G1 X137.000 Y53.375 E2.24954
G1 X137.825 Y53.375 E2.27506
G1 X140.084 Y53.772 E2.34603
G1 X142.510 Y55.315 E2.43499 F600.000
G1 X142.685 Y55.490 E2.44264
G1 X144.001 Y57.368 E2.51361
G1 X144.625 Y60.175 E2.60256
G1 X144.625 Y60.825 E2.62268
G1 X144.228 Y63.084 E2.69364
G1 X143.085 Y65.072 E2.76460
G1 X141.332 Y66.551 E2.83556
G1 X139.180 Y67.344 E2.90652
G1 X136.886 Y67.356 E2.97749
G1 X134.390 Y66.380 E3.06044
G1 X133.390 Y65.730 E3.09734
G1 X131.712 Y64.166 E3.16830
G1 X130.668 Y62.124 E3.23926
G1 X130.375 Y60.175 E3.30023
G1 X130.375 Y60.000 E3.30565
G1 X130.759 Y57.815 E3.37429
G1 Z0.650 F7800.000
G1 Z0.950 F7800.000
M106 S204
G1 Z1.250 F7800.000
G1 E1.37429 F2400.00000
G92 E0
G1 X79.250 Y134.250 F7800.000
G1 E2.00000 F2400.00000
M106 S255
G1 X79.250 Y133.250 E2.02778 F3600.000
G1 X79.750 Y133.250 E2.04167
G1 X79.750 Y134.750 E2.08333
G1 X68.250 Y134.750 E2.40278
G1 X68.250 Y122.250 E2.75000
G1 X69.250 Y122.250 E2.77778
G1 X69.250 Y87.250 E3.75000
G1 X70.250 Y87.250 E3.77778
G1 X70.250 Y83.250 E3.88889
G1 X73.250 Y83.250 E3.97222
G1 X73.250 Y81.750 E4.01389
G1 X72.250 Y81.750 E4.04167
G1 X72.250 Y81.250 E4.05556
G1 X73.250 Y81.250 E4.08333
G1 X73.250 Y73.250 E4.30556
G1 X75.750 Y73.250 E4.37500
G1 X75.750 Y73.750 E4.38889
G1 X73.750 Y73.750 E4.44444
G1 X73.750 Y83.750 E4.72222
G1 X70.750 Y83.750 E4.80556
G1 X70.750 Y87.750 E4.91667
G1 X69.750 Y87.750 E4.94444
G1 X69.750 Y122.750 E5.91667
G1 X68.750 Y122.750 E5.94444
G1 X68.750 Y134.250 E6.26389
G1 X76.250 Y134.250 E6.47222
G1 X76.250 Y125.250 E6.72222
G1 X76.750 Y125.250 E6.73611
G1 X76.750 Y134.250 E6.98611
G1 X79.175 Y134.250 E7.05347
M106 S204
G1 E5.05347 F2400.00000
G92 E0
G1 X77.750 Y73.750 F7800.000
G1 E2.00000 F2400.00000
M106 S255
G1 X77.250 Y73.750 E2.01389 F900.000
G1 X77.250 Y73.250 E2.02778
G1 X77.750 Y73.250 E2.04167
G1 X77.750 Y73.675 E2.05347
M106 S204
G1 E0.05347 F2400.00000
G92 E0
G1 X81.750 Y73.750 F7800.000
G1 E2.00000 F2400.00000
M106 S255
G1 X81.250 Y73.750 E2.01389 F900.000
G1 X81.250 Y73.250 E2.02778
G1 X81.750 Y73.250 E2.04167
G1 X81.750 Y73.675 E2.05347
M106 S204
G1 E0.05347 F2400.00000
G92 E0
G1 X70.750 Y78.750 F7800.000
G1 E2.00000 F2400.00000
M106 S255
G1 X70.250 Y78.750 E2.01389 F900.000
G1 X70.250 Y78.250 E2.02778
G1 X70.750 Y78.250 E2.04167
G1 X70.750 Y78.675 E2.05347
M106 S204
G1 E0.05347 F2400.00000
G92 E0
G1 X67.750 Y78.750 F7800.000
G1 E2.00000 F2400.00000
M106 S255
G1 X67.750 Y84.750 E2.16667 F900.000
G1 X65.750 Y84.750 E2.22222
G1 X65.750 Y90.750 E2.38889
G1 X64.250 Y90.750 E2.43056
G1 X64.250 Y90.250 E2.44444
G1 X65.250 Y90.250 E2.47222
G1 X65.250 Y84.250 E2.63889
G1 X67.250 Y84.250 E2.69444
G1 X67.250 Y78.250 E2.86111
G1 X68.750 Y78.250 E2.90278
G1 X68.750 Y78.750 E2.91667
G1 X67.825 Y78.750 E2.94236
M106 S204
G1 E0.94236 F2400.00000
G92 E0
G1 X70.750 Y81.750 F7800.000
G1 E2.00000 F2400.00000
M106 S255
G1 X70.250 Y81.750 E2.01389 F900.000
G1 X70.250 Y81.250 E2.02778
G1 X70.750 Y81.250 E2.04167
G1 X70.750 Y81.675 E2.05347
M106 S204
G1 E0.05347 F2400.00000
G92 E0
G1 X77.750 Y87.750 F7800.000
G1 E2.00000 F2400.00000
M106 S255
G1 X77.250 Y87.750 E2.01389 F900.000
G1 X77.250 Y87.250 E2.02778
G1 X77.750 Y87.250 E2.04167
G1 X77.750 Y87.675 E2.05347
M106 S204
G1 E0.05347 F2400.00000
G92 E0
G1 X77.750 Y90.250 F7800.000
G1 E2.00000 F2400.00000
M106 S255
G1 X81.250 Y90.250 E2.09722 F900.000
G1 X81.250 Y89.250 E2.12500
G1 X81.750 Y89.250 E2.13889
G1 X81.750 Y90.750 E2.18056
G1 X77.250 Y90.750 E2.30556
G1 X77.250 Y89.250 E2.34722
G1 X77.750 Y89.250 E2.36111
G1 X77.750 Y90.175 E2.38681
M106 S204
G1 E0.38681 F2400.00000
G92 E0
G1 X81.750 Y87.750 F7800.000
G1 E2.00000 F2400.00000
M106 S255
G1 X81.250 Y87.750 E2.01389 F900.000
G1 X81.250 Y87.250 E2.02778
G1 X81.750 Y87.250 E2.04167
G1 X81.750 Y87.675 E2.05347
M106 S204
G1 E0.05347 F2400.00000
G92 E0
G1 X90.205 Y101.205 F7800.000
G1 E2.00000 F2400.00000
M106 S255
G1 X89.795 Y101.205 E2.01139 F900.000
G1 X89.795 Y100.795 E2.02277
G1 X90.205 Y100.795 E2.03416
G1 X90.205 Y101.130 E2.04346
M106 S204
G1 X90.750 Y101.750 F7800.000
M106 S255
G1 X89.250 Y101.750 E2.08513 F900.000
G1 X89.250 Y100.250 E2.12679
G1 X90.750 Y100.250 E2.16846
G1 X90.750 Y101.675 E2.20804
M106 S204
G1 E0.20804 F2400.00000
G92 E0
G1 X83.750 Y111.250 F7800.000
G1 E2.00000 F2400.00000
M106 S255
G1 X84.750 Y111.250 E2.02778 F900.000
G1 X84.750 Y111.750 E2.04167
G1 X83.750 Y111.750 E2.06944
G1 X83.750 Y112.750 E2.09722
G1 X83.250 Y112.750 E2.11111
G1 X83.250 Y111.750 E2.13889
G1 X82.250 Y111.750 E2.16667
G1 X82.250 Y111.250 E2.18056
G1 X83.250 Y111.250 E2.20833
G1 X83.250 Y110.250 E2.23611
G1 X83.750 Y110.250 E2.25000
G1 X83.750 Y111.175 E2.27569
M106 S204
G1 E0.27569 F2400.00000
G92 E0
G1 X80.250 Y108.750 F7800.000
G1 E2.00000 F2400.00000
M106 S255
G1 X75.250 Y108.750 E2.13889 F900.000
G1 X75.250 Y108.250 E2.15278
G1 X80.750 Y108.250 E2.30556
G1 X80.750 Y109.750 E2.34722
G1 X80.250 Y109.750 E2.36111
G1 X80.250 Y108.825 E2.38681
M106 S204
G1 E0.38681 F2400.00000
G92 E0
G1 X80.750 Y111.750 F7800.000
G1 E2.00000 F2400.00000
M106 S255
G1 X80.250 Y111.750 E2.01389 F900.000
G1 X80.250 Y111.250 E2.02778
G1 X80.750 Y111.250 E2.04167
G1 X80.750 Y111.675 E2.05347
M106 S204
G1 E0.05347 F2400.00000
G92 E0
G1 X78.750 Y113.750 F7800.000
G1 E2.00000 F2400.00000
M106 S255
G1 X76.250 Y113.750 E2.06944 F900.000
G1 X76.250 Y113.250 E2.08333
G1 X78.750 Y113.250 E2.15278
G1 X78.750 Y113.675 E2.16458
M106 S204
G1 E0.16458 F2400.00000
G92 E0
G1 X77.750 Y111.750 F7800.000
G1 E2.00000 F2400.00000
M106 S255
G1 X77.250 Y111.750 E2.01389 F900.000
G1 X77.250 Y111.250 E2.02778
G1 X77.750 Y111.250 E2.04167
G1 X77.750 Y111.675 E2.05347
M106 S204
G1 E0.05347 F2400.00000
G92 E0
G1 X73.750 Y112.250 F7800.000
G1 E2.00000 F2400.00000
M106 S255
G1 X74.750 Y112.250 E2.02778 F900.000
G1 X74.750 Y112.750 E2.04167
G1 X73.750 Y112.750 E2.06944
G1 X73.750 Y113.750 E2.09722
G1 X73.250 Y113.750 E2.11111
G1 X73.250 Y112.750 E2.13889
G1 X72.250 Y112.750 E2.16667
G1 X72.250 Y112.250 E2.18056
G1 X73.250 Y112.250 E2.20833
G1 X73.250 Y111.250 E2.23611
G1 X73.750 Y111.250 E2.25000
G1 X73.750 Y112.175 E2.27569
M106 S204
G1 E0.27569 F2400.00000
G92 E0
G1 X73.205 Y109.205 F7800.000
G1 E2.00000 F2400.00000
M106 S255
G1 X72.795 Y109.205 E2.01139 F900.000
G1 X72.795 Y108.795 E2.02277
G1 X73.205 Y108.795 E2.03416
G1 X73.205 Y109.130 E2.04346
M106 S204
G1 X73.750 Y109.750 F7800.000
M106 S255
G1 X72.250 Y109.750 E2.08513 F900.000
G1 X72.250 Y108.250 E2.12679
G1 X73.750 Y108.250 E2.16846
G1 X73.750 Y109.675 E2.20804
M106 S204
G1 E0.20804 F2400.00000
G92 E0
G1 X65.250 Y101.250 F7800.000
G1 E2.00000 F2400.00000
M106 S255
G1 X65.250 Y93.750 E2.20833 F900.000
G1 X64.250 Y93.750 E2.23611
G1 X64.250 Y93.250 E2.25000
G1 X65.750 Y93.250 E2.29167
G1 X65.750 Y101.750 E2.52778
G1 X64.250 Y101.750 E2.56944
G1 X64.250 Y101.250 E2.58333
G1 X65.175 Y101.250 E2.60903
M106 S204
G1 E0.60903 F2400.00000
G92 E0
G1 X62.750 Y101.750 F7800.000
G1 E2.00000 F2400.00000
M106 S255
G1 X61.250 Y101.750 E2.04167 F900.000
G1 X61.250 Y101.250 E2.05556
G1 X62.750 Y101.250 E2.09722
G1 X62.750 Y101.675 E2.10903
M106 S204
G1 E0.10903 F2400.00000
G92 E0
G1 X62.205 Y99.205 F7800.000
G1 E2.00000 F2400.00000
M106 S255
G1 X61.795 Y99.205 E2.01139 F900.000
G1 X61.795 Y98.795 E2.02277
G1 X62.205 Y98.795 E2.03416
G1 X62.205 Y99.130 E2.04346
M106 S204
G1 X62.750 Y99.750 F7800.000
M106 S255
G1 X61.250 Y99.750 E2.08513 F900.000
G1 X61.250 Y98.250 E2.12679
G1 X62.750 Y98.250 E2.16846
G1 X62.750 Y99.675 E2.20804
M106 S204
G1 E0.20804 F2400.00000
G92 E0
G1 X62.205 Y96.205 F7800.000
G1 E2.00000 F2400.00000
M106 S255
G1 X61.795 Y96.205 E2.01139 F900.000
G1 X61.795 Y95.795 E2.02277
G1 X62.205 Y95.795 E2.03416
G1 X62.205 Y96.130 E2.04346
M106 S204
G1 X62.750 Y96.750 F7800.000
M106 S255
G1 X61.250 Y96.750 E2.08513 F900.000
G1 X61.250 Y95.250 E2.12679
G1 X62.750 Y95.250 E2.16846
G1 X62.750 Y96.675 E2.20804
M106 S204
G1 E0.20804 F2400.00000
G92 E0
G1 X62.750 Y93.750 F7800.000
G1 E2.00000 F2400.00000
M106 S255
G1 X61.250 Y93.750 E2.04167 F900.000
G1 X61.250 Y93.250 E2.05556
G1 X62.750 Y93.250 E2.09722
G1 X62.750 Y93.675 E2.10903
M106 S204
G1 E0.10903 F2400.00000
G92 E0
G1 X62.750 Y90.750 F7800.000
G1 E2.00000 F2400.00000
M106 S255
G1 X62.250 Y90.750 E2.01389 F900.000
G1 X62.250 Y90.250 E2.02778
G1 X62.750 Y90.250 E2.04167
G1 X62.750 Y90.675 E2.05347
M106 S204
G1 E0.05347 F2400.00000
G92 E0
G1 X62.750 Y67.750 F7800.000
G1 E2.00000 F2400.00000
M106 S255
G1 X62.250 Y67.750 E2.01389 F900.000
G1 X62.250 Y67.250 E2.02778
G1 X62.750 Y67.250 E2.04167
G1 X62.750 Y67.675 E2.05347
M106 S204
G1 E0.05347 F2400.00000
G92 E0
G1 X62.750 Y64.750 F7800.000
G1 E2.00000 F2400.00000
M106 S255
G1 X61.250 Y64.750 E2.04167 F900.000
G1 X61.250 Y64.250 E2.05556
G1 X62.750 Y64.250 E2.09722
G1 X62.750 Y64.675 E2.10903
M106 S204
G1 E0.10903 F2400.00000
G92 E0
G1 X62.205 Y62.205 F7800.000
G1 E2.00000 F2400.00000
M106 S255
G1 X61.795 Y62.205 E2.01139 F900.000
G1 X61.795 Y61.795 E2.02277
G1 X62.205 Y61.795 E2.03416
G1 X62.205 Y62.130 E2.04346
M106 S204
G1 X62.750 Y62.750 F7800.000
M106 S255
G1 X61.250 Y62.750 E2.08513 F900.000
G1 X61.250 Y61.250 E2.12679
G1 X62.750 Y61.250 E2.16846
G1 X62.750 Y62.675 E2.20804
M106 S204
G1 E0.20804 F2400.00000
G92 E0
G1 X65.250 Y64.750 F7800.000
G1 E2.00000 F2400.00000
M106 S255
G1 X64.250 Y64.750 E2.02778 F900.000
G1 X64.250 Y64.250 E2.04167
G1 X65.750 Y64.250 E2.08333
G1 X65.750 Y67.750 E2.18056
G1 X64.250 Y67.750 E2.22222
G1 X64.250 Y67.250 E2.23611
G1 X65.250 Y67.250 E2.26389
G1 X65.250 Y64.825 E2.33125
M106 S204
G1 E0.33125 F2400.00000
G92 E0
G1 X117.750 Y86.750 F7800.000
G1 E2.00000 F2400.00000
M106 S255
G1 X117.250 Y86.750 E2.01389 F900.000
G1 X117.250 Y86.250 E2.02778
G1 X117.750 Y86.250 E2.04167
G1 X117.750 Y86.675 E2.05347
M106 S204
G1 E0.05347 F2400.00000
G92 E0
G1 X114.750 Y86.250 F7800.000
G1 E2.00000 F2400.00000
M106 S255
G1 X115.750 Y86.250 E2.02778 F900.000
G1 X115.750 Y86.750 E2.04167
G1 X114.250 Y86.750 E2.08333
G1 X114.250 Y78.250 E2.31944
G1 X120.250 Y78.250 E2.48611
G1 X120.250 Y74.250 E2.59722
G1 X120.750 Y74.250 E2.61111
G1 X120.750 Y78.750 E2.73611
G1 X114.750 Y78.750 E2.90278
G1 X114.750 Y86.175 E3.10903
M106 S204
G1 E1.10903 F2400.00000
G92 E0
G1 X119.750 Y105.750 F7800.000
G1 E2.00000 F2400.00000
M106 S255
G1 X119.250 Y105.750 E2.01389 F900.000
G1 X119.250 Y105.250 E2.02778
G1 X119.750 Y105.250 E2.04167
G1 X119.750 Y105.675 E2.05347
M106 S204
G1 E0.05347 F2400.00000
G92 E0
G1 X119.750 Y113.750 F7800.000
G1 E2.00000 F2400.00000
M106 S255
G1 X119.250 Y113.750 E2.01389 F900.000
G1 X119.250 Y113.250 E2.02778
G1 X119.750 Y113.250 E2.04167
G1 X119.750 Y113.675 E2.05347
M106 S204
G1 E0.05347 F2400.00000
G92 E0
G1 X89.750 Y120.250 F7800.000
G1 E2.00000 F2400.00000
M106 S255
G1 X90.750 Y120.250 E2.02778 F900.000
G1 X90.750 Y120.750 E2.04167
G1 X89.750 Y120.750 E2.06944
G1 X89.750 Y121.750 E2.09722
G1 X89.250 Y121.750 E2.11111
G1 X89.250 Y120.750 E2.13889
G1 X88.250 Y120.750 E2.16667
G1 X88.250 Y120.250 E2.18056
G1 X89.250 Y120.250 E2.20833
G1 X89.250 Y119.250 E2.23611
G1 X89.750 Y119.250 E2.25000
G1 X89.750 Y120.175 E2.27569
M106 S204
G1 E0.27569 F2400.00000
G92 E0
G1 X83.750 Y124.750 F7800.000
G1 E2.00000 F2400.00000
M106 S255
G1 X81.250 Y124.750 E2.06944 F900.000
G1 X81.250 Y124.250 E2.08333
G1 X83.750 Y124.250 E2.15278
G1 X83.750 Y124.675 E2.16458
M106 S204
G1 E0.16458 F2400.00000
G92 E0
G1 X83.750 Y126.750 F7800.000
G1 E2.00000 F2400.00000
M106 S255
G1 X82.250 Y126.750 E2.04167 F900.000
G1 X82.250 Y126.250 E2.05556
G1 X83.750 Y126.250 E2.09722
G1 X83.750 Y126.675 E2.10903
M106 S204
G1 E0.10903 F2400.00000
G92 E0
G1 X79.750 Y131.750 F7800.000
G1 E2.00000 F2400.00000
M106 S255
G1 X79.250 Y131.750 E2.01389 F900.000
G1 X79.250 Y131.250 E2.02778
G1 X79.750 Y131.250 E2.04167
G1 X79.750 Y131.675 E2.05347
M106 S204
G1 E0.05347 F2400.00000
G92 E0
G1 X73.205 Y128.205 F7800.000
G1 E2.00000 F2400.00000
M106 S255
G1 X72.795 Y128.205 E2.01139 F900.000
G1 X72.795 Y127.795 E2.02277
G1 X73.205 Y127.795 E2.03416
G1 X73.205 Y128.130 E2.04346
M106 S204
G1 X73.750 Y128.750 F7800.000
M106 S255
G1 X72.250 Y128.750 E2.08513 F900.000
G1 X72.250 Y127.250 E2.12679
G1 X73.750 Y127.250 E2.16846
G1 X73.750 Y128.675 E2.20804
M106 S204
G1 E0.20804 F2400.00000
G92 E0
G1 X74.750 Y125.750 F7800.000
G1 E2.00000 F2400.00000
M106 S255
G1 X72.250 Y125.750 E2.06944 F900.000
G1 X72.250 Y125.250 E2.08333
G1 X74.750 Y125.250 E2.15278
G1 X74.750 Y125.675 E2.16458
M106 S204
G1 E0.16458 F2400.00000
G92 E0
G1 X76.750 Y123.750 F7800.000
G1 E2.00000 F2400.00000
M106 S255
G1 X76.250 Y123.750 E2.01389 F900.000
G1 X76.250 Y123.250 E2.02778
G1 X76.750 Y123.250 E2.04167
G1 X76.750 Y123.675 E2.05347
M106 S204
G1 E0.05347 F2400.00000
G92 E0
G1 X64.750 Y128.750 F7800.000
G1 E2.00000 F2400.00000
M106 S255
G1 X62.250 Y128.750 E2.06944 F900.000
G1 X62.250 Y128.250 E2.08333
G1 X64.750 Y128.250 E2.15278
G1 X64.750 Y128.675 E2.16458
M106 S204
M106 S193.8
G1 Z1.550 F7800.000
G1 E0.16458 F2400.00000
G92 E0
G1 X68.750 Y134.250 F7800.000
G1 E2.00000 F2400.00000
G1 X76.250 Y134.250 E2.13866 F1800.000
G1 X76.250 Y125.250 E2.30506
G1 X76.750 Y125.250 E2.31430
G1 X76.750 Y134.250 E2.48069
G1 X79.250 Y134.250 E2.52692
G1 X79.250 Y133.250 E2.54540
G1 X79.750 Y133.250 E2.55465
G1 X79.750 Y134.750 E2.58238
G1 X68.250 Y134.750 E2.79500
G1 X68.250 Y122.250 E3.02610
G1 X69.250 Y122.250 E3.04459
G1 X69.250 Y87.250 E3.69168
G1 X70.250 Y87.250 E3.71016
G1 X70.250 Y83.250 E3.78412
G1 X73.250 Y83.250 E3.83958
G1 X73.250 Y81.750 E3.86731
G1 X72.250 Y81.750 E3.88580
G1 X72.250 Y81.250 E3.89505
G1 X73.250 Y81.250 E3.91354
G1 X73.250 Y73.250 E4.06144
G1 X75.750 Y73.250 E4.10766
G1 X75.750 Y73.750 E4.11691
G1 X73.750 Y73.750 E4.15388
G1 X73.750 Y83.750 E4.33877
G1 X70.750 Y83.750 E4.39423
G1 X70.750 Y87.750 E4.46818
G1 X69.750 Y87.750 E4.48667
G1 X69.750 Y122.750 E5.13376
G1 X68.750 Y122.750 E5.15225
G1 X68.750 Y134.175 E5.36348
G1 X68.750 Y134.750 F7800.000
G1 E3.36348 F2400.00000
G92 E0
G1 X77.250 Y73.750 F7800.000
G1 E2.00000 F2400.00000
G1 X77.250 Y73.250 E2.00924 F900.000
G1 X77.750 Y73.250 E2.01849
G1 X77.750 Y73.750 E2.02773
G1 X77.325 Y73.750 E2.03559
G1 X77.500 Y73.317 F7800.000
G1 E0.03559 F2400.00000
G92 E0
G1 X81.250 Y73.750 F7800.000
G1 E2.00000 F2400.00000
G1 X81.250 Y73.250 E2.00924 F900.000
G1 X81.750 Y73.250 E2.01849
G1 X81.750 Y73.750 E2.02773
G1 X81.325 Y73.750 E2.03559
G1 X81.500 Y73.317 F7800.000
G1 E0.03559 F2400.00000
G92 E0
G1 X70.750 Y78.250 F7800.000
G1 E2.00000 F2400.00000
G1 X70.750 Y78.750 E2.00924 F900.000
G1 X70.250 Y78.750 E2.01849
G1 X70.250 Y78.250 E2.02773
G1 X70.675 Y78.250 E2.03559
G1 X70.500 Y78.683 F7800.000
G1 E0.03559 F2400.00000
G92 E0
G1 X67.750 Y78.750 F7800.000
G1 E2.00000 F2400.00000
G1 X67.750 Y84.750 E2.11093 F900.000
G1 X65.750 Y84.750 E2.14791
G1 X65.750 Y90.750 E2.25884
G1 X64.250 Y90.750 E2.28657
G1 X64.250 Y90.250 E2.29581
G1 X65.250 Y90.250 E2.31430
G1 X65.250 Y84.250 E2.42523
G1 X67.250 Y84.250 E2.46221
G1 X67.250 Y78.250 E2.57314
G1 X68.750 Y78.250 E2.60087
G1 X68.750 Y78.750 E2.61011
G1 X67.825 Y78.750 E2.62721
G1 X67.250 Y78.750 F7800.000
G1 E0.62721 F2400.00000
G92 E0
G1 X70.250 Y81.250 F7800.000
G1 E2.00000 F2400.00000
G1 X70.750 Y81.250 E2.00924 F900.000
G1 X70.750 Y81.750 E2.01849
G1 X70.250 Y81.750 E2.02773
G1 X70.250 Y81.325 E2.03559
G1 X70.683 Y81.500 F7800.000
G1 E0.03559 F2400.00000
G92 E0
G1 X77.250 Y87.250 F7800.000
