; generated by Slic3r 1.2.9 on 2017-04-21 at 11:56:17

; external perimeters extrusion width = 0.50mm
; perimeters extrusion width = 0.72mm
; infill extrusion width = 0.72mm
; solid infill extrusion width = 0.72mm
; top infill extrusion width = 0.72mm

M107
M104 S200 T1 ; set temperature
G28 ; home all axes
G1 Z5 F5000 ; lift nozzle

M109 S200 T1 ; wait for temperature to be reached
G21 ; set units to millimeters
G90 ; use absolute coordinates
M82 ; use absolute distances for extrusion
G92 E0
T1
G92 E0
G1 Z0.350 F7800.000
G1 E-2.00000 F2400.00000
G92 E0
G1 X56.488 Y53.325 F7800.000
G1 E2.00000 F2400.00000
G1 X58.071 Y51.666 E2.07096 F1800.000
G1 X60.125 Y50.646 E2.14192
G1 X62.000 Y50.375 E2.20054
G1 X138.000 Y50.375 E4.55208
G1 X140.259 Y50.772 E4.62304
G1 X142.247 Y51.915 E4.69400 F1800.000
G1 X143.512 Y53.325 E4.75261
G1 X145.512 Y56.325 E4.86417
G1 X146.435 Y58.425 E4.93513
G1 X146.625 Y60.000 E4.98423
G1 X146.625 Y140.000 E7.45953
G1 X146.228 Y142.259 E7.53049
G1 X145.512 Y143.675 E7.57958
G1 X143.512 Y146.675 E7.69114
G1 X141.929 Y148.334 E7.76211
G1 X139.875 Y149.354 E7.83307
G1 X138.000 Y149.625 E7.89168
G1 X62.000 Y149.625 E10.24322
G1 X59.741 Y149.228 E10.31418
G1 X57.753 Y148.085 E10.38514
G1 X56.488 Y146.675 E10.44376
G1 X54.488 Y143.675 E10.55532
G1 X53.565 Y141.575 E10.62628
G1 X53.375 Y140.000 E10.67537
G1 X53.375 Y60.000 E13.15067
G1 X53.772 Y57.741 E13.22164
G1 X54.488 Y56.325 E13.27073
G1 X56.446 Y53.388 E13.37997
G1 E11.37997 F2400.00000
G92 E0
G1 X137.600 Y137.600 F7800.000
G1 E2.00000 F2400.00000
G1 X62.400 Y137.600 E4.32677 F1800.000
G1 X62.400 Y62.400 E6.65355
G1 X137.600 Y62.400 E8.98032
G1 X137.600 Y137.525 E11.30477
G1 X136.975 Y136.975 F7800.000
G1 X63.025 Y136.975 E13.59288 F1800.000
G1 X63.025 Y63.025 E15.88098
G1 X136.975 Y63.025 E18.16908
G1 X136.975 Y136.900 E20.45486
G1 X136.350 Y136.350 F7800.000
G1 X100.650 Y136.350 E21.55947 F1800.000
G1 X100.650 Y100.650 E22.66407
G1 X136.350 Y100.650 E23.76868
G1 X136.350 Y136.275 E24.87096
G1 X136.350 Y136.850 F7800.000
G1 X99.350 Y136.350 F7800.000
G1 X63.650 Y136.350 E25.97557 F1800.000
G1 X63.650 Y100.650 E27.08017
G1 X99.350 Y100.650 E28.18478
G1 X99.350 Y136.275 E29.28706
G1 X99.350 Y136.850 F7800.000
G1 X100.650 Y99.350 F7800.000
G1 X100.650 Y63.650 E30.39167 F1800.000
G1 X136.350 Y63.650 E31.49627
G1 X136.350 Y99.350 E32.60088
G1 X100.725 Y99.350 E33.70316
G1 X100.150 Y99.350 F7800.000
G1 X99.350 Y99.350 F7800.000
G1 X63.650 Y99.350 E34.80777 F1800.000
G1 X63.650 Y63.650 E35.91237
G1 X99.350 Y63.650 E37.01698
G1 X99.350 Y99.275 E38.11926
G1 X99.350 Y99.850 F7800.000
G1 E36.11926 F2400.00000
G92 E0
G1 X96.400 Y61.600 F7800.000
G1 E2.00000 F2400.00000
G1 X103.600 Y61.600 E2.22276 F1800.000
G1 X103.600 Y58.600 E2.31559
G1 X104.400 Y58.600 E2.34035
G1 X104.400 Y61.600 E2.43318
G1 X111.600 Y61.600 E2.65594
G1 X111.600 Y58.600 E2.74877
G1 X112.400 Y58.600 E2.77353
G1 X112.400 Y61.600 E2.86636
G1 X119.600 Y61.600 E3.08912
G1 X119.600 Y58.600 E3.18194
G1 X120.400 Y58.600 E3.20671
G1 X120.400 Y61.600 E3.29954
G1 X127.600 Y61.600 E3.52230
G1 X127.600 Y58.600 E3.61512
G1 X128.400 Y58.600 E3.63989
G1 X128.400 Y61.600 E3.73271
G1 X135.600 Y61.600 E3.95548
G1 X135.600 Y58.600 E4.04830
G1 X136.400 Y58.600 E4.07307
G1 X136.400 Y61.600 E4.16589
G1 X138.400 Y61.600 E4.22777
G1 X138.400 Y138.400 E6.60408
G1 X136.400 Y138.400 E6.66596
G1 X136.400 Y141.400 E6.75879
G1 X135.600 Y141.400 E6.78355
G1 X135.600 Y138.400 E6.87638
G1 X128.400 Y138.400 E7.09914
G1 X128.400 Y141.400 E7.19197
G1 X127.600 Y141.400 E7.21673
G1 X127.600 Y138.400 E7.30956
G1 X120.400 Y138.400 E7.53232
G1 X120.400 Y141.400 E7.62514
G1 X119.600 Y141.400 E7.64991
G1 X119.600 Y138.400 E7.74274
G1 X112.400 Y138.400 E7.96550
G1 X112.400 Y141.400 E8.05832
G1 X111.600 Y141.400 E8.08309
G1 X111.600 Y138.400 E8.17591
G1 X104.400 Y138.400 E8.39868
G1 X104.400 Y141.400 E8.49150
G1 X103.600 Y141.400 E8.51627
G1 X103.600 Y138.400 E8.60909
G1 X96.400 Y138.400 E8.83186
G1 X96.400 Y141.400 E8.92468
G1 X95.600 Y141.400 E8.94945
G1 X95.600 Y138.400 E9.04227
G1 X88.400 Y138.400 E9.26503
G1 X88.400 Y141.400 E9.35786
G1 X87.600 Y141.400 E9.38263
G1 X87.600 Y138.400 E9.47545
G1 X80.400 Y138.400 E9.69821
G1 X80.400 Y141.400 E9.79104
G1 X79.600 Y141.400 E9.81580
G1 X79.600 Y138.400 E9.90863
G1 X72.400 Y138.400 E10.13139
G1 X72.400 Y141.400 E10.22422
G1 X71.600 Y141.400 E10.24898
G1 X71.600 Y138.400 E10.34181
G1 X64.400 Y138.400 E10.56457
G1 X64.400 Y141.400 E10.65739
G1 X63.600 Y141.400 E10.68216
G1 X63.600 Y138.400 E10.77498
G1 X61.600 Y138.400 E10.83687
G1 X61.600 Y61.600 E13.21317
G1 X63.600 Y61.600 E13.27506
G1 X63.600 Y58.600 E13.36788
G1 X64.400 Y58.600 E13.39265
G1 X64.400 Y61.600 E13.48547
G1 X71.600 Y61.600 E13.70823
G1 X71.600 Y58.600 E13.80106
G1 X72.400 Y58.600 E13.82583
G1 X72.400 Y61.600 E13.91865
G1 X79.600 Y61.600 E14.14141
G1 X79.600 Y58.600 E14.23424
G1 X80.400 Y58.600 E14.25900
G1 X80.400 Y61.600 E14.35183
G1 X87.600 Y61.600 E14.57459
G1 X87.600 Y58.600 E14.66742
G1 X88.400 Y58.600 E14.69218
G1 X88.400 Y61.600 E14.78501
G1 X95.600 Y61.600 E15.00777
G1 X95.600 Y58.600 E15.10059
G1 X96.400 Y58.600 E15.12536
G1 X96.400 Y61.525 E15.21586
G1 X97.025 Y60.975 F7800.000
G1 X102.975 Y60.975 E15.39996 F1800.000
G1 X102.975 Y57.975 E15.49278
G1 X105.025 Y57.975 E15.55622
G1 X105.025 Y60.975 E15.64904
G1 X110.975 Y60.975 E15.83314
G1 X110.975 Y57.975 E15.92596
G1 X113.025 Y57.975 E15.98940
G1 X113.025 Y60.975 E16.08222
G1 X118.975 Y60.975 E16.26631
G1 X118.975 Y57.975 E16.35914
G1 X121.025 Y57.975 E16.42258
G1 X121.025 Y60.975 E16.51540
G1 X126.975 Y60.975 E16.69949
G1 X126.975 Y57.975 E16.79232
G1 X129.025 Y57.975 E16.85575
G1 X129.025 Y60.975 E16.94858
G1 X134.975 Y60.975 E17.13267
G1 X134.975 Y57.975 E17.22550
G1 X137.025 Y57.975 E17.28893
G1 X137.025 Y60.975 E17.38176
G1 X139.025 Y60.975 E17.44364
G1 X139.025 Y139.025 E19.85862
G1 X137.025 Y139.025 E19.92050
G1 X137.025 Y142.025 E20.01332
G1 X134.975 Y142.025 E20.07676
G1 X134.975 Y139.025 E20.16958
G1 X129.025 Y139.025 E20.35368
G1 X129.025 Y142.025 E20.44650
G1 X126.975 Y142.025 E20.50994
G1 X126.975 Y139.025 E20.60276
G1 X121.025 Y139.025 E20.78685
G1 X121.025 Y142.025 E20.87968
G1 X118.975 Y142.025 E20.94312
G1 X118.975 Y139.025 E21.03594
G1 X113.025 Y139.025 E21.22003
G1 X113.025 Y142.025 E21.31286
G1 X110.975 Y142.025 E21.37629
G1 X110.975 Y139.025 E21.46912
G1 X105.025 Y139.025 E21.65321
G1 X105.025 Y142.025 E21.74604
G1 X102.975 Y142.025 E21.80947
G1 X102.975 Y139.025 E21.90230
G1 X97.025 Y139.025 E22.08639
G1 X97.025 Y142.025 E22.17921
G1 X94.975 Y142.025 E22.24265
G1 X94.975 Y139.025 E22.33547
G1 X89.025 Y139.025 E22.51957
G1 X89.025 Y142.025 E22.61239
G1 X86.975 Y142.025 E22.67583
G1 X86.975 Y139.025 E22.76865
G1 X81.025 Y139.025 E22.95275
G1 X81.025 Y142.025 E23.04557
G1 X78.975 Y142.025 E23.10901
G1 X78.975 Y139.025 E23.20183
G1 X73.025 Y139.025 E23.38593
G1 X73.025 Y142.025 E23.47875
G1 X70.975 Y142.025 E23.54219
G1 X70.975 Y139.025 E23.63501
G1 X65.025 Y139.025 E23.81910
G1 X65.025 Y142.025 E23.91193
G1 X62.975 Y142.025 E23.97536
G1 X62.975 Y139.025 E24.06819
G1 X60.975 Y139.025 E24.13007
G1 X60.975 Y60.975 E26.54505
G1 X62.975 Y60.975 E26.60693
G1 X62.975 Y57.975 E26.69975
G1 X65.025 Y57.975 E26.76319
G1 X65.025 Y60.975 E26.85601
G1 X70.975 Y60.975 E27.04011
G1 X70.975 Y57.975 E27.13293
G1 X73.025 Y57.975 E27.19637
G1 X73.025 Y60.975 E27.28919
G1 X78.975 Y60.975 E27.47329
G1 X78.975 Y57.975 E27.56611
G1 X81.025 Y57.975 E27.62955
G1 X81.025 Y60.975 E27.72237
G1 X86.975 Y60.975 E27.90646
G1 X86.975 Y57.975 E27.99929
G1 X89.025 Y57.975 E28.06273
G1 X89.025 Y60.975 E28.15555
G1 X94.975 Y60.975 E28.33964
G1 X94.975 Y57.975 E28.43247
G1 X97.025 Y57.975 E28.49590
G1 X97.025 Y60.900 E28.58641
G1 X97.650 Y60.350 F7800.000
G1 X102.350 Y60.350 E28.73183 F1800.000
G1 X102.350 Y57.350 E28.82466
G1 X105.650 Y57.350 E28.92676
G1 X105.650 Y60.350 E29.01959
G1 X110.350 Y60.350 E29.16501
G1 X110.350 Y57.350 E29.25783
G1 X113.650 Y57.350 E29.35994
G1 X113.650 Y60.350 E29.45276
G1 X118.350 Y60.350 E29.59819
G1 X118.350 Y57.350 E29.69101
G1 X121.650 Y57.350 E29.79312
G1 X121.650 Y60.350 E29.88594
G1 X126.350 Y60.350 E30.03137
G1 X126.350 Y57.350 E30.12419
G1 X129.650 Y57.350 E30.22630
G1 X129.650 Y60.350 E30.31912
G1 X134.350 Y60.350 E30.46455
G1 X134.350 Y57.350 E30.55737
G1 X137.650 Y57.350 E30.65948
G1 X137.650 Y60.350 E30.75230
G1 X139.650 Y60.350 E30.81418
G1 X139.650 Y139.650 E33.26783
G1 X137.650 Y139.650 E33.32971
G1 X137.650 Y142.650 E33.42253
G1 X134.350 Y142.650 E33.52464
G1 X134.350 Y139.650 E33.61747
G1 X129.650 Y139.650 E33.76289
G1 X129.650 Y142.650 E33.85571
G1 X126.350 Y142.650 E33.95782
G1 X126.350 Y139.650 E34.05064
G1 X121.650 Y139.650 E34.19607
G1 X121.650 Y142.650 E34.28889
G1 X118.350 Y142.650 E34.39100
G1 X118.350 Y139.650 E34.48382
G1 X113.650 Y139.650 E34.62925
G1 X113.650 Y142.650 E34.72207
G1 X110.350 Y142.650 E34.82418
G1 X110.350 Y139.650 E34.91700
G1 X105.650 Y139.650 E35.06242
G1 X105.650 Y142.650 E35.15525
G1 X102.350 Y142.650 E35.25735
G1 X102.350 Y139.650 E35.35018
G1 X97.650 Y139.650 E35.49560
G1 X97.650 Y142.650 E35.58843
G1 X94.350 Y142.650 E35.69053
G1 X94.350 Y139.650 E35.78336
G1 X89.650 Y139.650 E35.92878
G1 X89.650 Y142.650 E36.02161
G1 X86.350 Y142.650 E36.12371
G1 X86.350 Y139.650 E36.21654
G1 X81.650 Y139.650 E36.36196
G1 X81.650 Y142.650 E36.45478
G1 X78.350 Y142.650 E36.55689
G1 X78.350 Y139.650 E36.64971
G1 X73.650 Y139.650 E36.79514
G1 X73.650 Y142.650 E36.88796
G1 X70.350 Y142.650 E36.99007
G1 X70.350 Y139.650 E37.08289
G1 X65.650 Y139.650 E37.22832
G1 X65.650 Y142.650 E37.32114
G1 X62.350 Y142.650 E37.42325
G1 X62.350 Y139.650 E37.51607
G1 X60.350 Y139.650 E37.57795
G1 X60.350 Y60.350 E40.03160
G1 X62.350 Y60.350 E40.09348
G1 X62.350 Y57.350 E40.18631
G1 X65.650 Y57.350 E40.28841
G1 X65.650 Y60.350 E40.38124
G1 X70.350 Y60.350 E40.52666
G1 X70.350 Y57.350 E40.61948
G1 X73.650 Y57.350 E40.72159
G1 X73.650 Y60.350 E40.81441
G1 X78.350 Y60.350 E40.95984
G1 X78.350 Y57.350 E41.05266
G1 X81.650 Y57.350 E41.15477
G1 X81.650 Y60.350 E41.24759
G1 X86.350 Y60.350 E41.39302
G1 X86.350 Y57.350 E41.48584
G1 X89.650 Y57.350 E41.58795
G1 X89.650 Y60.350 E41.68077
G1 X94.350 Y60.350 E41.82620
G1 X94.350 Y57.350 E41.91902
G1 X97.650 Y57.350 E42.02113
G1 X97.650 Y60.275 E42.11163
G1 X97.650 Y60.850 F7800.000
G1 X66.500 Y64.000 F7800.000
G1 X66.500 Y70.825 E42.32280 F1800.000
G1 X67.825 Y69.500 F7800.000
G1 X64.000 Y69.500 E42.44115 F1800.000
G1 E40.44115 F2400.00000
G92 E0
G1 X69.500 Y70.825 F7800.000
G1 E2.00000 F2400.00000
G1 X69.500 Y64.000 E2.21117 F1800.000
G1 E0.21117 F2400.00000
G92 E0
G1 X72.500 Y64.000 F7800.000
G1 E2.00000 F2400.00000
G1 X72.500 Y70.825 E2.21117 F1800.000
G1 X73.825 Y69.500 F7800.000
G1 X69.500 Y69.500 E2.34499 F1800.000
G1 X69.500 Y76.825 E2.57163
G1 X70.825 Y75.500 F7800.000
G1 X66.500 Y75.500 E2.70545 F1800.000
G1 X66.500 Y82.825 E2.93209
G1 X67.825 Y81.500 F7800.000
G1 X64.000 Y81.500 E3.05044 F1800.000
G1 E1.05044 F2400.00000
G92 E0
G1 X66.500 Y76.825 F7800.000
G1 E2.00000 F2400.00000
G1 X66.500 Y69.500 E2.22664 F1800.000
G1 X70.825 Y69.500 E2.36046
G1 E0.36046 F2400.00000
G92 E0
G1 X75.500 Y70.825 F7800.000
G1 E2.00000 F2400.00000
G1 X75.500 Y64.000 E2.21117 F1800.000
G1 E0.21117 F2400.00000
G92 E0
G1 X78.500 Y64.000 F7800.000
G1 E2.00000 F2400.00000
G1 X78.500 Y70.825 E2.21117 F1800.000
G1 X79.825 Y69.500 F7800.000
G1 X75.500 Y69.500 E2.34499 F1800.000
G1 X75.500 Y76.825 E2.57163
G1 X76.825 Y75.500 F7800.000
G1 X72.500 Y75.500 E2.70545 F1800.000
G1 X72.500 Y82.825 E2.93209
G1 X73.825 Y81.500 F7800.000
G1 X69.500 Y81.500 E3.06591 F1800.000
G1 X69.500 Y88.825 E3.29255
G1 X70.825 Y87.500 F7800.000
G1 X66.500 Y87.500 E3.42637 F1800.000
G1 X66.500 Y94.825 E3.65301
G1 X67.825 Y93.500 F7800.000
G1 X64.000 Y93.500 E3.77136 F1800.000
G1 E1.77136 F2400.00000
G92 E0
G1 X66.500 Y88.825 F7800.000
G1 E2.00000 F2400.00000
G1 X66.500 Y81.500 E2.22664 F1800.000
G1 X70.825 Y81.500 E2.36046
G1 X69.500 Y82.825 F7800.000
G1 X69.500 Y75.500 E2.58710 F1800.000
G1 X73.825 Y75.500 E2.72092
G1 X72.500 Y76.825 F7800.000
G1 X72.500 Y69.500 E2.94756 F1800.000
G1 X76.825 Y69.500 E3.08138
G1 E1.08138 F2400.00000
G92 E0
G1 X81.500 Y70.825 F7800.000
G1 E2.00000 F2400.00000
G1 X81.500 Y64.000 E2.21117 F1800.000
G1 E0.21117 F2400.00000
G92 E0
G1 X84.500 Y64.000 F7800.000
G1 E2.00000 F2400.00000
G1 X84.500 Y70.825 E2.21117 F1800.000
G1 X85.825 Y69.500 F7800.000
G1 X81.500 Y69.500 E2.34499 F1800.000
G1 X81.500 Y76.825 E2.57163
G1 X82.825 Y75.500 F7800.000
G1 X78.500 Y75.500 E2.70545 F1800.000
G1 X78.500 Y82.825 E2.93209
G1 X79.825 Y81.500 F7800.000
G1 X75.500 Y81.500 E3.06591 F1800.000
G1 X75.500 Y75.500 E3.25156
G1 X79.825 Y75.500 E3.38537
G1 X78.500 Y76.825 F7800.000
G1 X78.500 Y69.500 E3.61201 F1800.000
G1 X82.825 Y69.500 E3.74583
G1 E1.74583 F2400.00000
G92 E0
G1 X87.500 Y70.825 F7800.000
G1 E2.00000 F2400.00000
G1 X87.500 Y64.000 E2.21117 F1800.000
G1 E0.21117 F2400.00000
G92 E0
G1 X90.500 Y64.000 F7800.000
G1 E2.00000 F2400.00000
G1 X90.500 Y70.825 E2.21117 F1800.000
G1 X91.825 Y69.500 F7800.000
G1 X87.500 Y69.500 E2.34499 F1800.000
G1 X87.500 Y76.825 E2.57163
G1 X88.825 Y75.500 F7800.000
G1 X84.500 Y75.500 E2.70545 F1800.000
G1 X84.500 Y82.825 E2.93209
G1 X85.825 Y81.500 F7800.000
G1 X81.500 Y81.500 E3.06591 F1800.000
G1 X81.500 Y88.825 E3.29255
G1 X82.825 Y87.500 F7800.000
G1 X78.500 Y87.500 E3.42637 F1800.000
G1 X78.500 Y94.825 E3.65301
G1 X79.825 Y93.500 F7800.000
G1 X75.500 Y93.500 E3.78683 F1800.000
G1 X75.500 Y99.000 E3.95700
G1 X75.500 Y101.000 F7800.000
G1 X75.500 Y106.500 E4.12718 F1800.000
G1 X76.000 Y107.000 E4.14906
G1 X76.825 Y106.500 F7800.000
G1 X72.500 Y106.500 E4.28288 F1800.000
G1 X72.500 Y113.825 E4.50952
G1 X73.825 Y112.500 F7800.000
G1 X69.500 Y112.500 E4.64334 F1800.000
G1 X69.500 Y119.825 E4.86998
G1 X70.825 Y118.500 F7800.000
G1 X66.500 Y118.500 E5.00380 F1800.000
G1 X66.500 Y125.825 E5.23044
G1 X67.825 Y124.500 F7800.000
G1 X64.000 Y124.500 E5.34878 F1800.000
G1 E3.34878 F2400.00000
G92 E0
G1 X66.500 Y119.825 F7800.000
G1 E2.00000 F2400.00000
G1 X66.500 Y112.500 E2.22664 F1800.000
G1 X70.825 Y112.500 E2.36046
G1 X69.500 Y113.825 F7800.000
G1 X69.500 Y106.500 E2.58710 F1800.000
G1 X73.825 Y106.500 E2.72092
G1 X72.500 Y107.825 F7800.000
G1 X72.500 Y101.000 E2.93209 F1800.000
G1 X72.500 Y99.000 F7800.000
G1 X72.500 Y93.500 E3.10227 F1800.000
G1 X76.825 Y93.500 E3.23608
G1 X75.500 Y94.825 F7800.000
G1 X75.500 Y87.500 E3.46273 F1800.000
G1 X78.500 Y87.500 E3.55555
G1 X76.675 Y87.500 E3.61201
G1 X76.825 Y87.500 F7800.000
G1 X72.500 Y87.500 E3.74583 F1800.000
G1 X72.500 Y94.825 E3.97247
G1 X73.825 Y93.500 F7800.000
G1 X69.500 Y93.500 E4.10629 F1800.000
G1 X69.500 Y99.000 E4.27647
G1 X69.500 Y101.000 F7800.000
G1 X69.500 Y107.825 E4.48764 F1800.000
G1 X70.825 Y106.500 F7800.000
G1 X66.500 Y106.500 E4.62146 F1800.000
G1 X66.500 Y113.825 E4.84810
G1 X67.825 Y112.500 F7800.000
G1 X64.000 Y112.500 E4.96645 F1800.000
G1 E2.96645 F2400.00000
G92 E0
G1 X66.500 Y107.825 F7800.000
G1 E2.00000 F2400.00000
G1 X66.500 Y101.000 E2.21117 F1800.000
G1 X66.500 Y99.000 F7800.000
G1 X66.500 Y93.500 E2.38135 F1800.000
G1 X70.825 Y93.500 E2.51517
G1 X69.500 Y94.825 F7800.000
G1 X69.500 Y87.500 E2.74181 F1800.000
G1 X73.825 Y87.500 E2.87562
G1 X72.500 Y88.825 F7800.000
G1 X72.500 Y81.500 E3.10227 F1800.000
G1 X76.825 Y81.500 E3.23608
G1 X75.500 Y80.175 F7800.000
G1 X75.500 Y88.825 E3.50372 F1800.000
G1 E1.50372 F2400.00000
G92 E0
G1 X78.500 Y88.825 F7800.000
G1 E2.00000 F2400.00000
G1 X78.500 Y81.500 E2.22664 F1800.000
G1 X82.825 Y81.500 E2.36046
G1 X81.500 Y82.825 F7800.000
G1 X81.500 Y75.500 E2.58710 F1800.000
G1 X85.825 Y75.500 E2.72092
G1 X84.500 Y76.825 F7800.000
G1 X84.500 Y69.500 E2.94756 F1800.000
G1 X88.825 Y69.500 E3.08138
G1 E1.08138 F2400.00000
G92 E0
G1 X93.500 Y70.825 F7800.000
G1 E2.00000 F2400.00000
G1 X93.500 Y64.000 E2.21117 F1800.000
G1 E0.21117 F2400.00000
G92 E0
G1 X96.500 Y64.000 F7800.000
G1 E2.00000 F2400.00000
G1 X96.500 Y70.825 E2.21117 F1800.000
