; generated by Slic3r 1.2.9 on 2017-04-26 at 13:02:55

; external perimeters extrusion width = 0.50mm
; perimeters extrusion width = 0.50mm
; infill extrusion width = 0.50mm
; solid infill extrusion width = 0.50mm
; top infill extrusion width = 0.50mm

M107
M190 S57 ; set bed temperature
G28 ; home all axes
M83;
G10 P0 S195 R160                       ; Set tool 0 operating and standby temperatures
T0

G21 ; set units to millimeters
G90 ; use absolute coordinates
M83 ; use relative distances for extrusion
G1 E-3.50000 F2400.00000
G1 Z0.300 F9000.000
G1 X58.942 Y54.978 F9000.000
G1 E3.50000 F2400.00000
G1 X60.197 Y53.806 E0.15755 F1200.000
G1 X62.050 Y53.314 E0.17589
G1 X137.950 Y53.314 E6.96386
G1 X139.621 Y53.709 E0.15755
G1 X141.058 Y54.978 E0.17589 F1200.000
G1 X143.058 Y57.978 E0.33081
G1 X143.686 Y60.050 E0.19864
G1 X143.686 Y139.950 E7.33087
G1 X143.058 Y142.022 E0.19864
G1 X141.058 Y145.022 E0.33081
G1 X139.803 Y146.194 E0.15755
G1 X137.950 Y146.686 E0.17589
G1 X62.050 Y146.686 E6.96386
G1 X60.379 Y146.291 E0.15755
G1 X58.942 Y145.022 E0.17589
G1 X56.942 Y142.022 E0.33081
G1 X56.314 Y139.950 E0.19864
G1 X56.314 Y60.050 E7.33087
G1 X56.942 Y57.978 E0.19864
G1 X58.900 Y55.040 E0.32393
G1 E-3.50000 F2400.00000
G1 X126.814 Y100.814 F9000.000
G1 E3.50000 F2400.00000
G1 X137.186 Y100.814 E0.95157 F900.000
G1 X137.186 Y137.186 E3.33708
G1 X126.814 Y137.186 E0.95157
G1 X126.814 Y100.889 E3.33020
G1 X127.550 Y101.550 F9000.000
G1 X136.450 Y101.550 E0.81658 F900.000
G1 X136.450 Y136.450 E3.20209
G1 X127.550 Y136.450 E0.81658
G1 X127.550 Y101.625 E3.19521
G1 X127.550 Y101.050 F9000.000
G1 X126.814 Y99.186 F9000.000
G1 X126.814 Y62.814 E3.33708 F900.000
G1 X137.186 Y62.814 E0.95157
G1 X137.186 Y99.186 E3.33708
G1 X126.889 Y99.186 E0.94469
G1 X127.550 Y98.450 F9000.000
G1 X127.550 Y63.550 E3.20209 F900.000
G1 X136.450 Y63.550 E0.81658
G1 X136.450 Y98.450 E3.20209
G1 X127.625 Y98.450 E0.80970
G1 X127.050 Y98.450 F9000.000
G1 X69.186 Y85.186 F9000.000
G1 X64.814 Y85.186 E0.40106 F900.000
G1 X64.814 Y76.814 E0.76807
G1 X69.186 Y76.814 E0.40106
G1 X69.186 Y85.111 E0.76118
G1 X68.450 Y84.450 F9000.000
G1 X65.550 Y84.450 E0.26608 F900.000
G1 X65.550 Y77.550 E0.63308
G1 X68.450 Y77.550 E0.26608
G1 X68.450 Y84.375 E0.62620
G1 X68.450 Y84.950 F9000.000
G1 X69.186 Y114.814 F9000.000
G1 X69.186 Y123.186 E0.76807 F900.000
G1 X64.814 Y123.186 E0.40106
G1 X64.814 Y114.814 E0.76807
G1 X69.111 Y114.814 E0.39418
G1 X68.450 Y115.550 F9000.000
G1 X68.450 Y122.450 E0.63308 F900.000
G1 X65.550 Y122.450 E0.26608
G1 X65.550 Y115.550 E0.63308
G1 X68.375 Y115.550 E0.25920
G1 X68.950 Y115.550 F9000.000
G1 X71.186 Y138.814 F9000.000
G1 X64.814 Y138.814 E0.58456 F900.000
G1 X64.814 Y141.814 E0.27525
G1 X63.186 Y141.814 E0.14944
G1 X63.186 Y138.814 E0.27525
G1 X61.186 Y138.814 E0.18350
G1 X61.186 Y61.186 E7.12248
G1 X63.186 Y61.186 E0.18350
G1 X63.186 Y58.186 E0.27525
G1 X64.814 Y58.186 E0.14944
G1 X64.814 Y61.186 E0.27525
G1 X71.186 Y61.186 E0.58456
G1 X71.186 Y58.186 E0.27525
G1 X72.814 Y58.186 E0.14944
G1 X72.814 Y61.186 E0.27525
G1 X79.186 Y61.186 E0.58456
G1 X79.186 Y58.186 E0.27525
G1 X80.814 Y58.186 E0.14944
G1 X80.814 Y61.186 E0.27525
G1 X87.186 Y61.186 E0.58456
G1 X87.186 Y58.186 E0.27525
G1 X88.814 Y58.186 E0.14944
G1 X88.814 Y61.186 E0.27525
G1 X95.186 Y61.186 E0.58456
G1 X95.186 Y58.186 E0.27525
G1 X96.814 Y58.186 E0.14944
G1 X96.814 Y61.186 E0.27525
G1 X103.186 Y61.186 E0.58456
G1 X103.186 Y58.186 E0.27525
G1 X104.814 Y58.186 E0.14944
G1 X104.814 Y61.186 E0.27525
G1 X111.186 Y61.186 E0.58456
G1 X111.186 Y58.186 E0.27525
G1 X112.814 Y58.186 E0.14944
G1 X112.814 Y61.186 E0.27525
G1 X119.186 Y61.186 E0.58456
G1 X119.186 Y58.186 E0.27525
G1 X120.814 Y58.186 E0.14944
G1 X120.814 Y61.186 E0.27525
G1 X127.186 Y61.186 E0.58456
G1 X127.186 Y58.186 E0.27525
G1 X128.814 Y58.186 E0.14944
G1 X128.814 Y61.186 E0.27525
G1 X135.186 Y61.186 E0.58456
G1 X135.186 Y58.186 E0.27525
G1 X136.814 Y58.186 E0.14944
G1 X136.814 Y61.186 E0.27525
G1 X138.814 Y61.186 E0.18350
G1 X138.814 Y138.814 E7.12248
G1 X136.814 Y138.814 E0.18350
G1 X136.814 Y141.814 E0.27525
G1 X135.186 Y141.814 E0.14944
G1 X135.186 Y138.814 E0.27525
G1 X128.814 Y138.814 E0.58456
G1 X128.814 Y141.814 E0.27525
G1 X127.186 Y141.814 E0.14944
G1 X127.186 Y138.814 E0.27525
G1 X120.814 Y138.814 E0.58456
G1 X120.814 Y141.814 E0.27525
G1 X119.186 Y141.814 E0.14944
G1 X119.186 Y138.814 E0.27525
G1 X112.814 Y138.814 E0.58456
G1 X112.814 Y141.814 E0.27525
G1 X111.186 Y141.814 E0.14944
G1 X111.186 Y138.814 E0.27525
G1 X104.814 Y138.814 E0.58456
G1 X104.814 Y141.814 E0.27525
G1 X103.186 Y141.814 E0.14944
G1 X103.186 Y138.814 E0.27525
G1 X96.814 Y138.814 E0.58456
G1 X96.814 Y141.814 E0.27525
G1 X95.186 Y141.814 E0.14944
G1 X95.186 Y138.814 E0.27525
G1 X88.814 Y138.814 E0.58456
G1 X88.814 Y141.814 E0.27525
G1 X87.186 Y141.814 E0.14944
G1 X87.186 Y138.814 E0.27525
G1 X80.814 Y138.814 E0.58456
G1 X80.814 Y141.814 E0.27525
G1 X79.186 Y141.814 E0.14944
G1 X79.186 Y138.814 E0.27525
G1 X72.814 Y138.814 E0.58456
G1 X72.814 Y141.814 E0.27525
G1 X71.186 Y141.814 E0.14944
G1 X71.186 Y138.889 E0.26837
G1 X70.450 Y139.550 F9000.000
G1 X65.550 Y139.550 E0.44958 F900.000
G1 X65.550 Y142.550 E0.27525
G1 X62.450 Y142.550 E0.28443
G1 X62.450 Y139.550 E0.27525
G1 X60.450 Y139.550 E0.18350
G1 X60.450 Y60.450 E7.25747
G1 X62.450 Y60.450 E0.18350
G1 X62.450 Y57.450 E0.27525
G1 X65.550 Y57.450 E0.28443
G1 X65.550 Y60.450 E0.27525
G1 X70.450 Y60.450 E0.44958
G1 X70.450 Y57.450 E0.27525
G1 X73.550 Y57.450 E0.28443
G1 X73.550 Y60.450 E0.27525
G1 X78.450 Y60.450 E0.44958
G1 X78.450 Y57.450 E0.27525
G1 X81.550 Y57.450 E0.28443
G1 X81.550 Y60.450 E0.27525
G1 X86.450 Y60.450 E0.44958
G1 X86.450 Y57.450 E0.27525
G1 X89.550 Y57.450 E0.28443
G1 X89.550 Y60.450 E0.27525
G1 X94.450 Y60.450 E0.44958
G1 X94.450 Y57.450 E0.27525
G1 X97.550 Y57.450 E0.28443
G1 X97.550 Y60.450 E0.27525
G1 X102.450 Y60.450 E0.44958
G1 X102.450 Y57.450 E0.27525
G1 X105.550 Y57.450 E0.28443
G1 X105.550 Y60.450 E0.27525
G1 X110.450 Y60.450 E0.44958
G1 X110.450 Y57.450 E0.27525
G1 X113.550 Y57.450 E0.28443
G1 X113.550 Y60.450 E0.27525
G1 X118.450 Y60.450 E0.44958
G1 X118.450 Y57.450 E0.27525
G1 X121.550 Y57.450 E0.28443
G1 X121.550 Y60.450 E0.27525
G1 X126.450 Y60.450 E0.44958
G1 X126.450 Y57.450 E0.27525
G1 X129.550 Y57.450 E0.28443
G1 X129.550 Y60.450 E0.27525
G1 X134.450 Y60.450 E0.44958
G1 X134.450 Y57.450 E0.27525
G1 X137.550 Y57.450 E0.28443
G1 X137.550 Y60.450 E0.27525
G1 X139.550 Y60.450 E0.18350
G1 X139.550 Y139.550 E7.25747
G1 X137.550 Y139.550 E0.18350
G1 X137.550 Y142.550 E0.27525
G1 X134.450 Y142.550 E0.28443
G1 X134.450 Y139.550 E0.27525
G1 X129.550 Y139.550 E0.44958
G1 X129.550 Y142.550 E0.27525
G1 X126.450 Y142.550 E0.28443
G1 X126.450 Y139.550 E0.27525
G1 X121.550 Y139.550 E0.44958
G1 X121.550 Y142.550 E0.27525
G1 X118.450 Y142.550 E0.28443
G1 X118.450 Y139.550 E0.27525
G1 X113.550 Y139.550 E0.44958
G1 X113.550 Y142.550 E0.27525
G1 X110.450 Y142.550 E0.28443
G1 X110.450 Y139.550 E0.27525
G1 X105.550 Y139.550 E0.44958
G1 X105.550 Y142.550 E0.27525
G1 X102.450 Y142.550 E0.28443
G1 X102.450 Y139.550 E0.27525
G1 X97.550 Y139.550 E0.44958
G1 X97.550 Y142.550 E0.27525
G1 X94.450 Y142.550 E0.28443
G1 X94.450 Y139.550 E0.27525
G1 X89.550 Y139.550 E0.44958
G1 X89.550 Y142.550 E0.27525
G1 X86.450 Y142.550 E0.28443
G1 X86.450 Y139.550 E0.27525
G1 X81.550 Y139.550 E0.44958
G1 X81.550 Y142.550 E0.27525
G1 X78.450 Y142.550 E0.28443
G1 X78.450 Y139.550 E0.27525
G1 X73.550 Y139.550 E0.44958
G1 X73.550 Y142.550 E0.27525
G1 X70.450 Y142.550 E0.28443
G1 X70.450 Y139.625 E0.26837
G1 X70.450 Y139.050 F9000.000
G1 X72.000 Y138.447 F9000.000
G1 X72.000 Y141.447 E0.57459 F600.000
G1 E-3.50000 F2400.00000
G1 X80.000 Y141.447 F9000.000
G1 E3.50000 F2400.00000
G1 X80.000 Y138.447 E0.57459 F600.000
G1 X88.000 Y138.447 F9000.000
G1 X88.000 Y141.447 E0.57459 F600.000
G1 E-3.50000 F2400.00000
G1 X96.000 Y141.447 F9000.000
G1 E3.50000 F2400.00000
G1 X96.000 Y138.447 E0.57459 F600.000
G1 X104.000 Y138.447 F9000.000
G1 X104.000 Y141.447 E0.57459 F600.000
G1 E-3.50000 F2400.00000
G1 X112.000 Y141.447 F9000.000
G1 E3.50000 F2400.00000
G1 X112.000 Y138.447 E0.57459 F600.000
G1 X120.000 Y138.447 F9000.000
G1 X120.000 Y141.447 E0.57459 F600.000
G1 E-3.50000 F2400.00000
G1 X126.447 Y138.000 F9000.000
G1 E3.50000 F2400.00000
G1 X127.553 Y138.000 E0.21200 F600.000
G1 X129.340 Y138.447 E0.35266
G1 X128.000 Y141.447 F9000.000
G1 X128.000 Y138.112 E0.63874 F600.000
G1 X128.447 Y138.000 E0.08816
G1 X135.553 Y138.000 E1.36118
G1 X137.340 Y138.447 E0.35266
G1 X136.000 Y141.447 F9000.000
G1 X136.000 Y138.112 E0.63874 F600.000
G1 X136.447 Y138.000 E0.08816
G1 X137.553 Y138.000 E0.21200
G1 X137.923 Y137.923 E0.07236
G1 X138.000 Y137.553 E0.07236
G1 X138.000 Y100.447 E7.10711
G1 X137.888 Y100.000 E0.08816
G1 X138.000 Y99.553 E0.08816
G1 X138.000 Y62.447 E7.10711
G1 X137.923 Y62.077 E0.07236
G1 X137.553 Y62.000 E0.07236
G1 X136.447 Y62.000 E0.21200
G1 X136.000 Y61.888 E0.08816
G1 X136.000 Y58.553 E0.63874
G1 X137.340 Y61.553 F9000.000
G1 X135.553 Y62.000 E0.35266 F600.000
G1 X128.447 Y62.000 E1.36118
G1 X128.000 Y61.888 E0.08816
G1 X128.000 Y58.553 E0.63874
G1 X129.340 Y61.553 F9000.000
G1 X127.553 Y62.000 E0.35266 F600.000
G1 X126.447 Y62.000 E0.21200
G1 X125.997 Y61.987 F9000.000
G1 X125.645 Y61.635 E0.04601 F900.000
G1 X124.598 Y61.635 E0.09680
G1 X125.997 Y63.035 E0.18291
G1 X126.365 Y64.450 E0.13513
G1 X123.550 Y61.635 E0.36788
G1 X122.502 Y61.635 E0.09680
G1 X126.365 Y65.498 E0.50478
G1 X126.365 Y66.545 E0.09680
G1 X121.455 Y61.635 E0.64168
G1 X120.775 Y62.003 E0.07142
G1 X126.365 Y67.593 E0.73052
G1 X126.365 Y68.641 E0.09680
G1 X119.727 Y62.003 E0.86742
G1 X118.751 Y62.074 E0.09044
G1 X118.312 Y61.635 E0.05740
G1 X126.365 Y69.688 E1.05239
G1 X126.365 Y70.736 E0.09680
G1 X117.264 Y61.635 E1.18929
G1 X116.216 Y61.635 E0.09680
G1 X126.365 Y71.784 E1.32619
G1 X126.365 Y72.831 E0.09680
G1 X115.168 Y61.635 E1.46309
G1 X114.121 Y61.635 E0.09680
G1 X126.365 Y73.879 E1.60000
G1 X126.365 Y74.927 E0.09680
G1 X113.249 Y61.811 E1.71389
G1 X112.393 Y62.003 E0.08105
G1 X126.365 Y75.975 E1.82574
G1 X126.365 Y77.022 E0.09680
G1 X111.346 Y62.003 E1.96264
G1 X109.930 Y61.635 E0.13513
G1 X126.365 Y78.070 E2.14760
G1 X126.365 Y79.118 E0.09680
G1 X108.882 Y61.635 E2.28451
G1 X107.835 Y61.635 E0.09680
G1 X126.365 Y80.165 E2.42141
G1 X126.365 Y81.213 E0.09680
G1 X106.787 Y61.635 E2.55831
G1 X105.739 Y61.635 E0.09680
G1 X126.365 Y82.261 E2.69521
G1 X126.365 Y83.308 E0.09680
G1 X105.060 Y62.003 E2.78405
G1 X104.012 Y62.003 E0.09680
G1 X126.365 Y84.356 E2.92096
G1 X126.365 Y85.404 E0.09680
G1 X102.964 Y62.003 E3.05786
G1 X101.549 Y61.635 E0.13513
G1 X126.365 Y86.451 E3.24282
G1 X126.365 Y87.499 E0.09680
G1 X100.501 Y61.635 E3.37972
G1 X99.453 Y61.635 E0.09680
G1 X126.365 Y88.547 E3.51663
G1 X126.365 Y89.594 E0.09680
G1 X98.406 Y61.635 E3.65353
G1 X97.358 Y61.635 E0.09680
G1 X126.365 Y90.642 E3.79043
G1 X126.365 Y91.690 E0.09680
G1 X96.678 Y62.003 E3.87927
G1 X95.630 Y62.003 E0.09680
G1 X126.365 Y92.737 E4.01617
G1 X126.365 Y93.785 E0.09680
G1 X94.215 Y61.635 E4.20114
G1 X93.167 Y61.635 E0.09680
G1 X126.365 Y94.833 E4.33804
G1 X126.365 Y95.880 E0.09680
G1 X92.120 Y61.635 E4.47494
G1 X91.072 Y61.635 E0.09680
G1 X126.365 Y96.928 E4.61184
G1 X126.365 Y97.976 E0.09680
G1 X90.024 Y61.635 E4.74875
G1 X89.249 Y61.907 E0.07591
G1 X126.093 Y98.751 E4.81439
G1 X125.997 Y99.703 E0.08845
G1 X88.297 Y62.003 E4.92643
G1 X87.249 Y62.003 E0.09680
G1 X125.997 Y100.751 E5.06333
G1 X126.365 Y102.166 E0.13513
G1 X85.834 Y61.635 E5.29636
G1 X84.786 Y61.635 E0.09680
G1 X126.365 Y103.214 E5.43326
G1 X126.365 Y104.262 E0.09680
G1 X83.738 Y61.635 E5.57016
G1 X82.690 Y61.635 E0.09680
G1 X126.365 Y105.310 E5.70706
G1 X126.365 Y106.357 E0.09680
G1 X81.643 Y61.635 E5.84396
G1 X80.963 Y62.003 E0.07142
G1 X126.365 Y107.405 E5.93281
G1 X126.365 Y108.453 E0.09680
G1 X79.915 Y62.003 E6.06971
G1 X78.868 Y62.003 E0.09680
G1 X126.365 Y109.500 E6.20661
G1 X126.365 Y110.548 E0.09680
G1 X77.452 Y61.635 E6.39157
G1 X76.404 Y61.635 E0.09680
G1 X126.365 Y111.596 E6.52848
G1 X126.365 Y112.643 E0.09680
G1 X75.357 Y61.635 E6.66538
G1 X74.309 Y61.635 E0.09680
G1 X126.365 Y113.691 E6.80228
G1 X126.365 Y114.739 E0.09680
G1 X73.261 Y61.635 E6.93918
G1 X72.582 Y62.003 F9000.000
G1 X126.365 Y115.786 E7.02802 F900.000
G1 X126.365 Y116.834 E0.09680
G1 X71.534 Y62.003 E7.16493
G1 X70.751 Y62.267 E0.07637
G1 X70.118 Y61.635 E0.08264
G1 X126.365 Y117.882 E7.34989
G1 X126.365 Y118.929 E0.09680
G1 X69.071 Y61.635 E7.48679
G1 X68.023 Y61.635 E0.09680
G1 X126.365 Y119.977 E7.62369
G1 X126.365 Y121.025 E0.09680
G1 X66.975 Y61.635 E7.76060
G1 X65.928 Y61.635 E0.09680
G1 X126.365 Y122.072 E7.89750
G1 X126.365 Y123.120 E0.09680
G1 X65.248 Y62.003 E7.98634
G1 X64.200 Y62.003 E0.09680
G1 X126.365 Y124.168 E8.12324
G1 X126.365 Y125.215 E0.09680
G1 X63.152 Y62.003 E8.26014
G1 X61.737 Y61.635 E0.13513
G1 X126.365 Y126.263 E8.44511
G1 X126.365 Y127.311 E0.09680
G1 X61.635 Y62.580 E8.45845
G1 X61.635 Y63.628 E0.09680
G1 X126.365 Y128.358 E8.45845
G1 X126.365 Y129.406 E0.09680
G1 X61.635 Y64.676 E8.45845
G1 X61.635 Y65.723 E0.09680
G1 X126.365 Y130.454 E8.45845
G1 X126.365 Y131.501 E0.09680
G1 X61.635 Y66.771 E8.45845
G1 X61.635 Y67.819 E0.09680
G1 X126.365 Y132.549 E8.45845
G1 X126.365 Y133.597 E0.09680
G1 X69.635 Y76.866 E7.41307
G1 X69.134 Y76.365 F9000.000
G1 X61.635 Y68.866 E0.97987 F900.000
G1 X61.635 Y69.914 E0.09680
G1 X68.086 Y76.365 E0.84297
G1 X67.038 Y76.365 E0.09680
G1 X61.635 Y70.962 E0.70607
G1 X61.635 Y72.009 E0.09680
G1 X65.991 Y76.365 E0.56917
G1 X64.943 Y76.365 E0.09680
G1 X61.635 Y73.057 E0.43226
G1 X61.635 Y74.105 E0.09680
G1 X64.365 Y76.835 E0.35678
G1 X64.365 Y77.883 E0.09680
G1 X61.635 Y75.153 E0.35678
G1 X61.635 Y76.200 E0.09680
G1 X64.365 Y78.931 E0.35678
G1 X64.365 Y79.978 E0.09680
G1 X61.635 Y77.248 E0.35678
G1 X61.635 Y78.296 E0.09680
G1 X64.365 Y81.026 E0.35678
G1 X64.365 Y82.074 E0.09680
G1 X61.635 Y79.343 E0.35678
G1 X61.635 Y80.391 E0.09680
G1 X64.365 Y83.121 E0.35678
G1 X64.365 Y84.169 E0.09680
G1 X61.635 Y81.439 E0.35678
G1 X61.635 Y82.486 E0.09680
G1 X64.365 Y85.217 E0.35678
G1 X64.783 Y85.635 F9000.000
G1 X117.514 Y138.365 E6.89039 F900.000
G1 X118.561 Y138.365 E0.09680
G1 X65.831 Y85.635 E6.89039
G1 X66.879 Y85.635 E0.09680
G1 X119.241 Y137.997 E6.84232
G1 X120.289 Y137.997 E0.09680
G1 X67.926 Y85.635 E6.84232
G1 X68.974 Y85.635 E0.09680
G1 X121.704 Y138.365 E6.89039
G1 X122.752 Y138.365 E0.09680
G1 X69.635 Y85.248 E6.94095
G1 X69.635 Y84.200 E0.09680
G1 X123.800 Y138.365 E7.07785
G1 X124.847 Y138.365 E0.09680
G1 X69.635 Y83.153 E7.21475
G1 X69.635 Y82.105 E0.09680
G1 X125.895 Y138.365 E7.35166
G1 X125.997 Y137.420 E0.08787
G1 X69.635 Y81.057 E7.36501
G1 X69.635 Y80.009 E0.09680
G1 X126.365 Y136.740 E7.41307
G1 X126.365 Y135.692 E0.09680
G1 X69.635 Y78.962 E7.41307
G1 X69.635 Y77.914 E0.09680
G1 X126.365 Y134.644 E7.41307
G1 X116.466 Y138.365 F9000.000
G1 X61.635 Y83.534 E7.16491 F900.000
G1 X61.635 Y84.582 E0.09680
G1 X115.418 Y138.365 E7.02801
G1 X114.371 Y138.365 E0.09680
G1 X61.635 Y85.629 E6.89111
G1 X61.635 Y86.677 E0.09680
G1 X112.955 Y137.997 E6.70615
G1 X111.908 Y137.997 E0.09680
G1 X61.635 Y87.725 E6.56924
G1 X61.635 Y88.772 E0.09680
G1 X110.860 Y137.997 E6.43234
G1 X110.180 Y138.365 E0.07142
G1 X61.635 Y89.820 E6.34350
G1 X61.635 Y90.868 E0.09680
G1 X109.132 Y138.365 E6.20660
G1 X108.085 Y138.365 E0.09680
G1 X61.635 Y91.915 E6.06970
G1 X61.635 Y92.963 E0.09680
G1 X107.037 Y138.365 E5.93279
G1 X105.989 Y138.365 E0.09680
G1 X61.635 Y94.011 E5.79589
G1 X61.635 Y95.058 E0.09680
G1 X104.574 Y137.997 E5.61093
G1 X103.526 Y137.997 E0.09680
G1 X61.635 Y96.106 E5.47403
G1 X61.635 Y97.154 E0.09680
G1 X102.751 Y138.270 E5.37271
G1 X101.799 Y138.365 E0.08842
G1 X61.635 Y98.201 E5.24828
G1 X61.635 Y99.249 E0.09680
G1 X100.751 Y138.365 E5.11138
G1 X99.703 Y138.365 E0.09680
G1 X61.635 Y100.297 E4.97448
G1 X61.635 Y101.344 E0.09680
G1 X98.656 Y138.365 E4.83758
G1 X97.608 Y138.365 E0.09680
G1 X61.635 Y102.392 E4.70067
