; generated by Slic3r 1.2.9 on 2017-04-26 at 12:05:05

; external perimeters extrusion width = 0.50mm
; perimeters extrusion width = 0.50mm
; infill extrusion width = 0.50mm
; solid infill extrusion width = 0.50mm
; top infill extrusion width = 0.50mm

M107
M190 S57 ; set bed temperature
G28 ; home all axes
M83;
G10 P0 S195 R160                       ; Set tool 0 operating and standby temperatures
T0

G21 ; set units to millimeters
G90 ; use absolute coordinates
M83 ; use relative distances for extrusion
G1 E-3.50000 F2400.00000
G1 Z0.300 F9000.000
G1 X58.942 Y54.978 F9000.000
G1 E3.50000 F2400.00000
G1 X60.197 Y53.806 E0.15755 F1200.000
G1 X62.050 Y53.314 E0.17589
G1 X137.950 Y53.314 E6.96386
G1 X139.621 Y53.709 E0.15755
G1 X141.058 Y54.978 E0.17589 F1200.000
G1 X143.058 Y57.978 E0.33081
G1 X143.686 Y60.050 E0.19864
G1 X143.686 Y139.950 E7.33087
G1 X143.058 Y142.022 E0.19864
G1 X141.058 Y145.022 E0.33081
G1 X139.803 Y146.194 E0.15755
G1 X137.950 Y146.686 E0.17589
G1 X62.050 Y146.686 E6.96386
G1 X60.379 Y146.291 E0.15755
G1 X58.942 Y145.022 E0.17589
G1 X56.942 Y142.022 E0.33081
G1 X56.314 Y139.950 E0.19864
G1 X56.314 Y60.050 E7.33087
G1 X56.942 Y57.978 E0.19864
G1 X58.900 Y55.040 E0.32393
G1 E-3.50000 F2400.00000
G1 X136.550 Y91.450 F9000.000
G1 E3.50000 F2400.00000
G1 X136.550 Y89.550 E0.17433 F900.000
G1 X138.450 Y89.550 E0.17433
G1 X138.450 Y91.450 E0.17433
G1 X136.625 Y91.450 E0.16744
G1 X136.050 Y91.450 F9000.000
G1 X136.550 Y68.450 F9000.000
G1 X136.550 Y66.550 E0.17433 F900.000
G1 X138.450 Y66.550 E0.17433
G1 X138.450 Y68.450 E0.17433
G1 X136.625 Y68.450 E0.16744
G1 X136.050 Y68.450 F9000.000
G1 E-3.50000 F2400.00000
G1 X77.186 Y132.814 F9000.000
G1 E3.50000 F2400.00000
G1 X77.186 Y136.186 E0.30931 F900.000
G1 X72.814 Y136.186 E0.40106
G1 X72.814 Y132.814 E0.30931
G1 X77.111 Y132.814 E0.39418
G1 X76.450 Y133.550 F9000.000
G1 X76.450 Y135.450 E0.17433 F900.000
G1 X73.550 Y135.450 E0.26608
G1 X73.550 Y133.550 E0.17433
G1 X76.375 Y133.550 E0.25920
G1 X76.950 Y133.550 F9000.000
G1 X74.186 Y132.186 F9000.000
G1 X70.814 Y132.186 E0.30931 F900.000
G1 X70.814 Y128.814 E0.30931
G1 X74.186 Y128.814 E0.30931
G1 X74.186 Y132.111 E0.30243
G1 X73.450 Y131.450 F9000.000
G1 X71.550 Y131.450 E0.17433 F900.000
G1 X71.550 Y129.550 E0.17433
G1 X73.450 Y129.550 E0.17433
G1 X73.450 Y131.375 E0.16744
G1 X73.450 Y131.950 F9000.000
G1 X72.814 Y128.186 F9000.000
G1 X72.814 Y124.814 E0.30931 F900.000
G1 X76.186 Y124.814 E0.30931
G1 X76.186 Y128.186 E0.30931
G1 X72.889 Y128.186 E0.30243
G1 X73.550 Y127.450 F9000.000
G1 X73.550 Y125.550 E0.17433 F900.000
G1 X75.450 Y125.550 E0.17433
G1 X75.450 Y127.450 E0.17433
G1 X73.625 Y127.450 E0.16744
G1 X73.050 Y127.450 F9000.000
G1 X75.814 Y128.814 F9000.000
G1 X79.186 Y128.814 E0.30931 F900.000
G1 X79.186 Y132.186 E0.30931
G1 X75.814 Y132.186 E0.30931
G1 X75.814 Y128.889 E0.30243
G1 X76.550 Y129.550 F9000.000
G1 X78.450 Y129.550 E0.17433 F900.000
G1 X78.450 Y131.450 E0.17433
G1 X76.550 Y131.450 E0.17433
G1 X76.550 Y129.625 E0.16744
G1 X76.550 Y129.050 F9000.000
G1 X87.814 Y128.186 F9000.000
G1 X87.814 Y124.814 E0.30931 F900.000
G1 X91.186 Y124.814 E0.30931
G1 X91.186 Y128.186 E0.30931
G1 X87.889 Y128.186 E0.30243
G1 X88.550 Y127.450 F9000.000
G1 X88.550 Y125.550 E0.17433 F900.000
G1 X90.450 Y125.550 E0.17433
G1 X90.450 Y127.450 E0.17433
G1 X88.625 Y127.450 E0.16744
G1 X88.050 Y127.450 F9000.000
G1 X86.814 Y123.186 F9000.000
G1 X86.814 Y119.814 E0.30931 F900.000
G1 X93.186 Y119.814 E0.58456
G1 X93.186 Y123.186 E0.30931
G1 X86.889 Y123.186 E0.57768
G1 X90.550 Y122.450 F9000.000
G1 X90.550 Y120.550 E0.17433 F900.000
G1 X92.450 Y120.550 E0.17433
G1 X92.450 Y122.450 E0.17433
G1 X90.625 Y122.450 E0.16744
G1 X90.050 Y122.450 F9000.000
G1 X89.450 Y122.450 F9000.000
G1 X87.550 Y122.450 E0.17433 F900.000
G1 X87.550 Y120.550 E0.17433
G1 X89.450 Y120.550 E0.17433
G1 X89.450 Y122.375 E0.16744
G1 X89.450 Y122.950 F9000.000
G1 E-3.50000 F2400.00000
G1 X93.814 Y120.814 F9000.000
G1 E3.50000 F2400.00000
G1 X97.186 Y120.814 E0.30931 F900.000
G1 X97.186 Y124.186 E0.30931
G1 X93.814 Y124.186 E0.30931
G1 X93.814 Y120.889 E0.30243
G1 X94.550 Y121.550 F9000.000
G1 X96.450 Y121.550 E0.17433 F900.000
G1 X96.450 Y123.450 E0.17433
G1 X94.550 Y123.450 E0.17433
G1 X94.550 Y121.625 E0.16744
G1 X94.550 Y121.050 F9000.000
G1 X102.814 Y121.186 F9000.000
G1 X102.814 Y117.814 E0.30931 F900.000
G1 X106.186 Y117.814 E0.30931
G1 X106.186 Y121.186 E0.30931
G1 X102.889 Y121.186 E0.30243
G1 X103.550 Y120.450 F9000.000
G1 X103.550 Y118.550 E0.17433 F900.000
G1 X105.450 Y118.550 E0.17433
G1 X105.450 Y120.450 E0.17433
G1 X103.625 Y120.450 E0.16744
G1 X103.050 Y120.450 F9000.000
G1 X102.814 Y123.814 F9000.000
G1 X106.186 Y123.814 E0.30931 F900.000
G1 X106.186 Y127.186 E0.30931
G1 X102.814 Y127.186 E0.30931
G1 X102.814 Y123.889 E0.30243
G1 X103.550 Y124.550 F9000.000
G1 X105.450 Y124.550 E0.17433 F900.000
G1 X105.450 Y126.450 E0.17433
G1 X103.550 Y126.450 E0.17433
G1 X103.550 Y124.625 E0.16744
G1 X103.550 Y124.050 F9000.000
G1 X108.814 Y125.186 F9000.000
G1 X108.814 Y121.814 E0.30931 F900.000
G1 X112.186 Y121.814 E0.30931
G1 X112.186 Y125.186 E0.30931
G1 X108.889 Y125.186 E0.30243
G1 X109.550 Y124.450 F9000.000
G1 X109.550 Y122.550 E0.17433 F900.000
G1 X111.450 Y122.550 E0.17433
G1 X111.450 Y124.450 E0.17433
G1 X109.625 Y124.450 E0.16744
G1 X109.050 Y124.450 F9000.000
G1 X114.814 Y124.814 F9000.000
G1 X119.186 Y124.814 E0.40106 F900.000
G1 X119.186 Y128.186 E0.30931
G1 X114.814 Y128.186 E0.40106
G1 X114.814 Y124.889 E0.30243
G1 X115.550 Y125.550 F9000.000
G1 X118.450 Y125.550 E0.26608 F900.000
G1 X118.450 Y127.450 E0.17433
G1 X115.550 Y127.450 E0.26608
G1 X115.550 Y125.625 E0.16744
G1 X115.550 Y125.050 F9000.000
G1 X115.186 Y129.814 F9000.000
G1 X115.186 Y133.186 E0.30931 F900.000
G1 X111.814 Y133.186 E0.30931
G1 X111.814 Y129.814 E0.30931
G1 X115.111 Y129.814 E0.30243
G1 X114.450 Y130.550 F9000.000
G1 X114.450 Y132.450 E0.17433 F900.000
G1 X112.550 Y132.450 E0.17433
G1 X112.550 Y130.550 E0.17433
G1 X114.375 Y130.550 E0.16744
G1 X114.950 Y130.550 F9000.000
G1 X118.814 Y129.814 F9000.000
G1 X122.186 Y129.814 E0.30931 F900.000
G1 X122.186 Y133.186 E0.30931
G1 X118.814 Y133.186 E0.30931
G1 X118.814 Y129.889 E0.30243
G1 X119.550 Y130.550 F9000.000
G1 X121.450 Y130.550 E0.17433 F900.000
G1 X121.450 Y132.450 E0.17433
G1 X119.550 Y132.450 E0.17433
G1 X119.550 Y130.625 E0.16744
G1 X119.550 Y130.050 F9000.000
G1 X124.814 Y130.186 F9000.000
G1 X124.814 Y125.814 E0.40106 F900.000
G1 X129.186 Y125.814 E0.40106
G1 X129.186 Y130.186 E0.40106
G1 X124.889 Y130.186 E0.39418
G1 X125.550 Y129.450 F9000.000
G1 X125.550 Y126.550 E0.26608 F900.000
G1 X128.450 Y126.550 E0.26608
G1 X128.450 Y129.450 E0.26608
G1 X125.625 Y129.450 E0.25920
G1 X125.050 Y129.450 F9000.000
G1 X125.186 Y125.186 F9000.000
G1 X121.814 Y125.186 E0.30931 F900.000
G1 X121.814 Y121.814 E0.30931
G1 X125.186 Y121.814 E0.30931
G1 X125.186 Y125.111 E0.30243
G1 X124.450 Y124.450 F9000.000
G1 X122.550 Y124.450 E0.17433 F900.000
G1 X122.550 Y122.550 E0.17433
G1 X124.450 Y122.550 E0.17433
G1 X124.450 Y124.375 E0.16744
G1 X124.450 Y124.950 F9000.000
G1 X124.186 Y113.186 F9000.000
G1 X117.814 Y113.186 E0.58456 F900.000
G1 X117.814 Y109.814 E0.30931
G1 X124.186 Y109.814 E0.58456
G1 X124.186 Y113.111 E0.30243
G1 X123.450 Y112.450 F9000.000
G1 X121.550 Y112.450 E0.17433 F900.000
G1 X121.550 Y110.550 E0.17433
G1 X123.450 Y110.550 E0.17433
G1 X123.450 Y112.375 E0.16744
G1 X123.450 Y112.950 F9000.000
G1 X120.450 Y112.450 F9000.000
G1 X118.550 Y112.450 E0.17433 F900.000
G1 X118.550 Y110.550 E0.17433
G1 X120.450 Y110.550 E0.17433
G1 X120.450 Y112.375 E0.16744
G1 X120.450 Y112.950 F9000.000
G1 E-3.50000 F2400.00000
G1 X124.814 Y111.186 F9000.000
G1 E3.50000 F2400.00000
G1 X124.814 Y106.814 E0.40106 F900.000
G1 X129.186 Y106.814 E0.40106
G1 X129.186 Y111.186 E0.40106
G1 X124.889 Y111.186 E0.39418
G1 X125.550 Y110.450 F9000.000
G1 X125.550 Y107.550 E0.26608 F900.000
G1 X128.450 Y107.550 E0.26608
G1 X128.450 Y110.450 E0.26608
G1 X125.625 Y110.450 E0.25920
G1 X125.050 Y110.450 F9000.000
G1 X112.186 Y103.186 F9000.000
G1 X107.814 Y103.186 E0.40106 F900.000
G1 X107.814 Y98.814 E0.40106
G1 X112.186 Y98.814 E0.40106
G1 X112.186 Y103.111 E0.39418
G1 X111.450 Y102.450 F9000.000
G1 X108.550 Y102.450 E0.26608 F900.000
G1 X108.550 Y99.550 E0.26608
G1 X111.450 Y99.550 E0.26608
G1 X111.450 Y102.375 E0.25920
G1 X111.450 Y102.950 F9000.000
G1 E-3.50000 F2400.00000
G1 X105.186 Y94.186 F9000.000
G1 E3.50000 F2400.00000
G1 X101.814 Y94.186 E0.30931 F900.000
G1 X101.814 Y90.814 E0.30931
G1 X105.186 Y90.814 E0.30931
G1 X105.186 Y94.111 E0.30243
G1 X104.450 Y93.450 F9000.000
G1 X102.550 Y93.450 E0.17433 F900.000
G1 X102.550 Y91.550 E0.17433
G1 X104.450 Y91.550 E0.17433
G1 X104.450 Y93.375 E0.16744
G1 X104.450 Y93.950 F9000.000
G1 X107.814 Y90.186 F9000.000
G1 X107.814 Y85.814 E0.40106 F900.000
G1 X112.186 Y85.814 E0.40106
G1 X112.186 Y90.186 E0.40106
G1 X107.889 Y90.186 E0.39418
G1 X108.550 Y89.450 F9000.000
G1 X108.550 Y86.550 E0.26608 F900.000
G1 X111.450 Y86.550 E0.26608
G1 X111.450 Y89.450 E0.26608
G1 X108.625 Y89.450 E0.25920
G1 X108.050 Y89.450 F9000.000
G1 X112.814 Y89.186 F9000.000
G1 X112.814 Y85.814 E0.30931 F900.000
G1 X116.186 Y85.814 E0.30931
G1 X116.186 Y89.186 E0.30931
G1 X112.889 Y89.186 E0.30243
G1 X113.550 Y88.450 F9000.000
G1 X113.550 Y86.550 E0.17433 F900.000
G1 X115.450 Y86.550 E0.17433
G1 X115.450 Y88.450 E0.17433
G1 X113.625 Y88.450 E0.16744
G1 X113.050 Y88.450 F9000.000
G1 X116.814 Y89.186 F9000.000
G1 X116.814 Y85.814 E0.30931 F900.000
G1 X120.186 Y85.814 E0.30931
G1 X120.186 Y89.186 E0.30931
G1 X116.889 Y89.186 E0.30243
G1 X117.550 Y88.450 F9000.000
G1 X117.550 Y86.550 E0.17433 F900.000
G1 X119.450 Y86.550 E0.17433
G1 X119.450 Y88.450 E0.17433
G1 X117.625 Y88.450 E0.16744
G1 X117.050 Y88.450 F9000.000
G1 X120.814 Y89.186 F9000.000
G1 X120.814 Y85.814 E0.30931 F900.000
G1 X124.186 Y85.814 E0.30931
G1 X124.186 Y89.186 E0.30931
G1 X120.889 Y89.186 E0.30243
G1 X121.550 Y88.450 F9000.000
G1 X121.550 Y86.550 E0.17433 F900.000
G1 X123.450 Y86.550 E0.17433
G1 X123.450 Y88.450 E0.17433
G1 X121.625 Y88.450 E0.16744
G1 X121.050 Y88.450 F9000.000
G1 E-3.50000 F2400.00000
G1 X127.814 Y83.186 F9000.000
G1 E3.50000 F2400.00000
G1 X127.814 Y76.814 E0.58456 F900.000
G1 X131.186 Y76.814 E0.30931
G1 X131.186 Y83.186 E0.58456
G1 X127.889 Y83.186 E0.30243
G1 X128.550 Y82.450 F9000.000
G1 X128.550 Y80.550 E0.17433 F900.000
G1 X130.450 Y80.550 E0.17433
G1 X130.450 Y82.450 E0.17433
G1 X128.625 Y82.450 E0.16744
G1 X128.050 Y82.450 F9000.000
G1 X128.550 Y79.450 F9000.000
G1 X128.550 Y77.550 E0.17433 F900.000
G1 X130.450 Y77.550 E0.17433
G1 X130.450 Y79.450 E0.17433
G1 X128.625 Y79.450 E0.16744
G1 X128.050 Y79.450 F9000.000
G1 X124.186 Y75.186 F9000.000
G1 X120.814 Y75.186 E0.30931 F900.000
G1 X120.814 Y71.814 E0.30931
G1 X124.186 Y71.814 E0.30931
G1 X124.186 Y75.111 E0.30243
G1 X123.450 Y74.450 F9000.000
G1 X121.550 Y74.450 E0.17433 F900.000
G1 X121.550 Y72.550 E0.17433
G1 X123.450 Y72.550 E0.17433
G1 X123.450 Y74.375 E0.16744
G1 X123.450 Y74.950 F9000.000
G1 X120.186 Y75.186 F9000.000
G1 X116.814 Y75.186 E0.30931 F900.000
G1 X116.814 Y68.814 E0.58456
G1 X120.186 Y68.814 E0.30931
G1 X120.186 Y75.111 E0.57768
G1 X119.450 Y74.450 F9000.000
G1 X117.550 Y74.450 E0.17433 F900.000
G1 X117.550 Y72.550 E0.17433
G1 X119.450 Y72.550 E0.17433
G1 X119.450 Y74.375 E0.16744
G1 X119.450 Y74.950 F9000.000
G1 X119.450 Y71.450 F9000.000
G1 X117.550 Y71.450 E0.17433 F900.000
G1 X117.550 Y69.550 E0.17433
G1 X119.450 Y69.550 E0.17433
G1 X119.450 Y71.375 E0.16744
G1 X119.450 Y71.950 F9000.000
G1 E-3.50000 F2400.00000
G1 X116.186 Y68.814 F9000.000
G1 E3.50000 F2400.00000
G1 X116.186 Y75.186 E0.58456 F900.000
G1 X112.814 Y75.186 E0.30931
G1 X112.814 Y68.814 E0.58456
G1 X116.111 Y68.814 E0.30243
G1 X115.450 Y72.550 F9000.000
G1 X115.450 Y74.450 E0.17433 F900.000
G1 X113.550 Y74.450 E0.17433
G1 X113.550 Y72.550 E0.17433
G1 X115.375 Y72.550 E0.16744
G1 X115.950 Y72.550 F9000.000
G1 X115.450 Y71.450 F9000.000
G1 X113.550 Y71.450 E0.17433 F900.000
G1 X113.550 Y69.550 E0.17433
G1 X115.450 Y69.550 E0.17433
G1 X115.450 Y71.375 E0.16744
G1 X115.450 Y71.950 F9000.000
G1 X106.186 Y71.814 F9000.000
G1 X106.186 Y75.186 E0.30931 F900.000
G1 X102.814 Y75.186 E0.30931
G1 X102.814 Y71.814 E0.30931
G1 X106.111 Y71.814 E0.30243
G1 X105.450 Y72.550 F9000.000
G1 X105.450 Y74.450 E0.17433 F900.000
G1 X103.550 Y74.450 E0.17433
G1 X103.550 Y72.550 E0.17433
G1 X105.375 Y72.550 E0.16744
G1 X105.950 Y72.550 F9000.000
G1 X103.186 Y71.186 F9000.000
G1 X99.814 Y71.186 E0.30931 F900.000
G1 X99.814 Y67.814 E0.30931
G1 X103.186 Y67.814 E0.30931
G1 X103.186 Y71.111 E0.30243
G1 X102.450 Y70.450 F9000.000
G1 X100.550 Y70.450 E0.17433 F900.000
G1 X100.550 Y68.550 E0.17433
G1 X102.450 Y68.550 E0.17433
G1 X102.450 Y70.375 E0.16744
G1 X102.450 Y70.950 F9000.000
G1 X100.186 Y71.814 F9000.000
G1 X100.186 Y75.186 E0.30931 F900.000
G1 X96.814 Y75.186 E0.30931
G1 X96.814 Y71.814 E0.30931
G1 X100.111 Y71.814 E0.30243
G1 X99.450 Y72.550 F9000.000
G1 X99.450 Y74.450 E0.17433 F900.000
G1 X97.550 Y74.450 E0.17433
G1 X97.550 Y72.550 E0.17433
G1 X99.375 Y72.550 E0.16744
G1 X99.950 Y72.550 F9000.000
G1 X100.186 Y80.814 F9000.000
G1 X100.186 Y84.186 E0.30931 F900.000
G1 X96.814 Y84.186 E0.30931
G1 X96.814 Y80.814 E0.30931
G1 X100.111 Y80.814 E0.30243
G1 X99.450 Y81.550 F9000.000
G1 X99.450 Y83.450 E0.17433 F900.000
G1 X97.550 Y83.450 E0.17433
G1 X97.550 Y81.550 E0.17433
G1 X99.375 Y81.550 E0.16744
G1 X99.950 Y81.550 F9000.000
G1 X102.814 Y80.814 F9000.000
G1 X106.186 Y80.814 E0.30931 F900.000
G1 X106.186 Y84.186 E0.30931
G1 X102.814 Y84.186 E0.30931
G1 X102.814 Y80.889 E0.30243
G1 X103.550 Y81.550 F9000.000
G1 X105.450 Y81.550 E0.17433 F900.000
G1 X105.450 Y83.450 E0.17433
G1 X103.550 Y83.450 E0.17433
G1 X103.550 Y81.625 E0.16744
G1 X103.550 Y81.050 F9000.000
G1 X96.186 Y87.814 F9000.000
G1 X96.186 Y91.186 E0.30931 F900.000
G1 X92.814 Y91.186 E0.30931
G1 X92.814 Y87.814 E0.30931
G1 X96.111 Y87.814 E0.30243
G1 X95.450 Y88.550 F9000.000
G1 X95.450 Y90.450 E0.17433 F900.000
G1 X93.550 Y90.450 E0.17433
G1 X93.550 Y88.550 E0.17433
G1 X95.375 Y88.550 E0.16744
G1 X95.950 Y88.550 F9000.000
G1 X96.186 Y93.814 F9000.000
G1 X96.186 Y97.186 E0.30931 F900.000
G1 X92.814 Y97.186 E0.30931
G1 X92.814 Y93.814 E0.30931
G1 X96.111 Y93.814 E0.30243
G1 X95.450 Y94.550 F9000.000
G1 X95.450 Y96.450 E0.17433 F900.000
G1 X93.550 Y96.450 E0.17433
G1 X93.550 Y94.550 E0.17433
G1 X95.375 Y94.550 E0.16744
G1 X95.950 Y94.550 F9000.000
G1 X96.814 Y102.814 F9000.000
G1 X103.186 Y102.814 E0.58456 F900.000
G1 X103.186 Y106.186 E0.30931
G1 X96.814 Y106.186 E0.58456
G1 X96.814 Y102.889 E0.30243
G1 X100.550 Y103.550 F9000.000
G1 X102.450 Y103.550 E0.17433 F900.000
G1 X102.450 Y105.450 E0.17433
G1 X100.550 Y105.450 E0.17433
G1 X100.550 Y103.625 E0.16744
G1 X100.550 Y103.050 F9000.000
G1 X99.450 Y103.550 F9000.000
G1 X99.450 Y105.450 E0.17433 F900.000
G1 X97.550 Y105.450 E0.17433
G1 X97.550 Y103.550 E0.17433
G1 X99.375 Y103.550 E0.16744
G1 X99.950 Y103.550 F9000.000
G1 X87.186 Y104.186 F9000.000
G1 X83.814 Y104.186 E0.30931 F900.000
G1 X83.814 Y100.814 E0.30931
G1 X87.186 Y100.814 E0.30931
G1 X87.186 Y104.111 E0.30243
G1 X86.450 Y103.450 F9000.000
G1 X84.550 Y103.450 E0.17433 F900.000
G1 X84.550 Y101.550 E0.17433
G1 X86.450 Y101.550 E0.17433
G1 X86.450 Y103.375 E0.16744
G1 X86.450 Y103.950 F9000.000
G1 X82.186 Y103.814 F9000.000
G1 X82.186 Y107.186 E0.30931 F900.000
G1 X78.814 Y107.186 E0.30931
G1 X78.814 Y103.814 E0.30931
G1 X82.111 Y103.814 E0.30243
G1 X81.450 Y104.550 F9000.000
G1 X81.450 Y106.450 E0.17433 F900.000
G1 X79.550 Y106.450 E0.17433
G1 X79.550 Y104.550 E0.17433
G1 X81.375 Y104.550 E0.16744
G1 X81.950 Y104.550 F9000.000
G1 X82.186 Y111.814 F9000.000
G1 X82.186 Y115.186 E0.30931 F900.000
G1 X78.814 Y115.186 E0.30931
G1 X78.814 Y111.814 E0.30931
G1 X82.111 Y111.814 E0.30243
G1 X81.450 Y112.550 F9000.000
G1 X81.450 Y114.450 E0.17433 F900.000
G1 X79.550 Y114.450 E0.17433
G1 X79.550 Y112.550 E0.17433
